;FLAVOR:Marlin
;TIME:3495
;Filament used: 6.54941m
;Layer height: 0.32
;MINX:100.107
;MINY:121.779
;MINZ:0.32
;MAXX:199.893
;MAXY:178.221
;MAXZ:14.92
;Generated with Cura_SteamEngine 4.9.1
M140 S90
M105
M190 S90
M104 S245
M105
M109 S245
M82 ;absolute extrusion mode
G28 ; home all axes
 M117 Purge extruder
 G92 E0 ; reset extruder
 G1 Z1.0 F3000 ; move z up little to prevent scratching of surface
 G1 X2 Y20 Z0.3 F5000.0 ; move to start-line position
 G1 X2 Y200.0 Z0.3 F1500.0 E15 ; draw 1st line
 G1 X2 Y200.0 Z0.4 F5000.0 ; move to side a little
 G1 X2 Y20 Z0.4 F1500.0 E30 ; draw 2nd line
 G92 E0 ; reset extruder
 G1 Z1.0 F3000 ; move z up little to prevent scratching of surface
G92 E0
G92 E0
G1 F1500 E-2
;LAYER_COUNT:46
;LAYER:0
M107
M205 X8 Y8
G1 F300 Z0.52
G0 F6000 X108.16 Y127.297 Z0.52
;TYPE:SKIRT
G1 F300 Z0.32
G1 F1500 E0
G1 F900 X109.571 Y126.09 E0.19509
G1 X110.131 Y125.651 E0.26986
G1 X110.668 Y125.292 E0.33773
G1 X112.239 Y124.33 E0.53128
G1 X112.809 Y124.011 E0.59991
G1 X113.436 Y123.72 E0.67254
G1 X115.151 Y123.009 E0.86761
G1 X115.814 Y122.767 E0.94176
G1 X116.438 Y122.591 E1.00988
G1 X118.232 Y122.161 E1.20372
G1 X119.031 Y122.01 E1.28915
G1 X119.563 Y121.952 E1.34538
G1 X121.436 Y121.805 E1.54278
G1 X122.09 Y121.779 E1.61155
G1 X184.439 Y121.78 E8.16253
G1 X185.38 Y121.833 E8.26156
G1 X186.563 Y121.967 E8.38665
G1 X187.566 Y122.143 E8.49365
G1 X187.612 Y122.154 E8.49862
G1 X188.423 Y122.392 E8.58742
G1 X189.543 Y122.783 E8.71207
G1 X190.382 Y123.128 E8.80738
G1 X190.424 Y123.148 E8.81227
G1 X191.277 Y123.617 E8.91455
G1 X192.288 Y124.252 E9.03999
G1 X193.043 Y124.787 E9.13721
G1 X193.082 Y124.818 E9.14245
G1 X193.791 Y125.451 E9.24231
G1 X194.621 Y126.281 E9.36564
G1 X195.254 Y126.99 E9.46551
G1 X195.285 Y127.029 E9.47074
G1 X195.82 Y127.783 E9.56788
G1 X196.454 Y128.792 E9.69309
G1 X196.92 Y129.639 E9.79466
G1 X196.941 Y129.683 E9.79978
G1 X197.289 Y130.529 E9.8959
G1 X197.68 Y131.649 E10.02054
G1 X197.918 Y132.46 E10.10935
G1 X197.929 Y132.506 E10.11432
G1 X198.105 Y133.508 E10.22121
G1 X198.239 Y134.69 E10.34619
G1 X198.292 Y135.63 E10.44512
G1 X198.293 Y138.494 E10.74604
G1 X198.481 Y138.748 E10.77924
G1 X198.902 Y139.449 E10.86515
G1 X199.252 Y140.187 E10.95097
G1 X199.529 Y140.957 E11.03695
G1 X199.729 Y141.749 E11.12278
G1 X199.851 Y142.558 E11.20874
G1 X199.893 Y143.397 E11.29701
G1 X199.893 Y152.901 E12.29559
G1 X199.853 Y153.718 E12.38153
G1 X199.733 Y154.526 E12.46736
G1 X199.536 Y155.32 E12.55331
G1 X199.261 Y156.09 E12.63922
G1 X198.913 Y156.829 E12.72505
G1 X198.494 Y157.531 E12.81095
G1 X198.292 Y157.804 E12.84663
G1 X198.292 Y160.665 E13.14723
G1 X198.239 Y161.604 E13.24605
G1 X198.105 Y162.788 E13.37125
G1 X197.929 Y163.792 E13.47834
G1 X197.918 Y163.838 E13.48331
G1 X197.681 Y164.648 E13.57199
G1 X197.291 Y165.766 E13.6964
G1 X196.942 Y166.613 E13.79265
G1 X196.921 Y166.657 E13.79777
G1 X196.457 Y167.501 E13.89897
G1 X195.823 Y168.511 E14.02427
G1 X195.304 Y169.246 E14.1188
G1 X195.274 Y169.284 E14.12389
G1 X194.623 Y170.015 E14.22674
G1 X193.791 Y170.847 E14.35037
G1 X193.082 Y171.48 E14.45023
G1 X193.043 Y171.511 E14.45547
G1 X192.289 Y172.046 E14.5526
G1 X191.28 Y172.68 E14.67781
G1 X190.433 Y173.146 E14.77938
G1 X190.389 Y173.167 E14.78451
G1 X189.543 Y173.515 E14.88062
G1 X188.423 Y173.906 E15.00527
G1 X187.612 Y174.144 E15.09407
G1 X187.566 Y174.155 E15.09904
G1 X186.563 Y174.331 E15.20603
G1 X185.38 Y174.465 E15.33113
G1 X184.44 Y174.518 E15.43005
G1 X176.42 Y174.519 E16.27271
G1 X175.857 Y175.159 E16.36227
G1 X175.817 Y175.199 E16.36821
G1 X175.021 Y175.9 E16.47966
G1 X174.65 Y176.187 E16.52894
G1 X173.747 Y176.796 E16.64338
G1 X173.699 Y176.824 E16.64922
G1 X172.69 Y177.325 E16.76758
G1 X172.256 Y177.505 E16.81695
G1 X171.291 Y177.838 E16.92421
G1 X171.237 Y177.853 E16.93009
G1 X170.062 Y178.09 E17.05604
G1 X169.586 Y178.151 E17.10646
G1 X169.091 Y178.2 E17.15872
G1 X168.495 Y178.221 E17.22138
G1 X157.317 Y178.221 E18.39585
G1 X156.693 Y178.198 E18.46146
G1 X156.226 Y178.151 E18.51077
G1 X155.75 Y178.09 E18.5612
G1 X154.575 Y177.853 E18.68714
G1 X154.521 Y177.838 E18.69303
G1 X153.55 Y177.503 E18.80095
G1 X153.117 Y177.323 E18.85022
G1 X152.162 Y176.852 E18.9621
G1 X152.115 Y176.825 E18.9678
G1 X151.184 Y176.204 E19.08538
G1 X150.808 Y175.915 E19.13521
G1 X150.065 Y175.271 E19.23852
G1 X150.024 Y175.231 E19.24454
G1 X149.392 Y174.519 E19.34457
G1 X122.073 Y174.518 E22.21496
G1 X121.417 Y174.492 E22.28394
G1 X119.561 Y174.346 E22.47955
G1 X119.258 Y174.317 E22.51154
G1 X118.228 Y174.137 E22.6214
G1 X116.434 Y173.706 E22.81526
G1 X115.78 Y173.52 E22.8867
G1 X115.151 Y173.289 E22.9571
G1 X113.436 Y172.578 E23.15217
G1 X112.809 Y172.287 E23.22479
G1 X112.239 Y171.968 E23.29343
G1 X110.668 Y171.006 E23.48698
G1 X110.102 Y170.626 E23.55861
G1 X109.574 Y170.211 E23.62917
G1 X108.166 Y169.008 E23.82375
G1 X107.662 Y168.539 E23.89609
G1 X107.217 Y168.059 E23.96486
G1 X106.014 Y166.651 E24.15944
G1 X105.567 Y166.079 E24.23572
G1 X105.222 Y165.56 E24.3012
G1 X104.258 Y163.987 E24.49504
G1 X103.909 Y163.358 E24.57062
G1 X103.645 Y162.783 E24.6371
G1 X102.935 Y161.067 E24.83222
G1 X102.681 Y160.365 E24.91066
G1 X102.521 Y159.792 E24.97317
G1 X102.188 Y158.408 E25.12273
G1 X102.006 Y158.207 E25.15122
G1 X101.519 Y157.55 E25.23715
G1 X101.098 Y156.849 E25.32307
G1 X100.748 Y156.111 E25.40889
G1 X100.471 Y155.341 E25.49487
G1 X100.271 Y154.549 E25.58069
G1 X100.149 Y153.74 E25.66666
G1 X100.107 Y152.901 E25.75492
G1 X100.107 Y143.397 E26.7535
G1 X100.147 Y142.58 E26.83944
G1 X100.267 Y141.772 E26.92527
G1 X100.464 Y140.978 E27.01123
G1 X100.739 Y140.208 E27.09714
G1 X101.087 Y139.469 E27.18296
G1 X101.506 Y138.767 E27.26886
G1 X101.992 Y138.109 E27.35481
G1 X102.187 Y137.894 E27.3853
G1 X102.522 Y136.502 E27.53574
G1 X102.681 Y135.933 E27.59781
G1 X102.935 Y135.231 E27.67625
G1 X103.645 Y133.515 E27.87137
G1 X103.909 Y132.94 E27.93785
G1 X104.257 Y132.313 E28.0132
G1 X105.221 Y130.739 E28.20713
G1 X105.567 Y130.218 E28.27284
G1 X106.017 Y129.643 E28.34956
G1 X107.217 Y128.24 E28.54354
G1 X107.683 Y127.739 E28.61543
G1 X107.994 Y127.451 E28.65996
G0 F810 X108.16 Y127.297
G0 F6000 X108.732 Y127.966
G1 F900 X110.143 Y126.759 E28.85506
G1 X110.647 Y126.364 E28.92234
G1 X111.128 Y126.043 E28.9831
G1 X112.699 Y125.081 E29.17665
G1 X113.212 Y124.793 E29.23847
G1 X113.773 Y124.533 E29.30343
G1 X115.488 Y123.822 E29.4985
G1 X116.085 Y123.604 E29.56528
G1 X116.644 Y123.447 E29.62628
G1 X118.438 Y123.017 E29.82012
G1 X119.152 Y122.882 E29.89647
G1 X119.632 Y122.829 E29.94721
G1 X121.505 Y122.682 E30.14461
G1 X122.09 Y122.659 E30.20612
G1 X184.439 Y122.66 E36.7571
G1 X185.281 Y122.708 E36.84571
G1 X186.464 Y122.842 E36.97081
G1 X187.362 Y122.999 E37.06659
G1 X187.408 Y123.01 E37.07156
G1 X188.133 Y123.223 E37.15095
G1 X189.253 Y123.614 E37.2756
G1 X190.004 Y123.923 E37.36092
G1 X190.046 Y123.943 E37.36581
G1 X190.808 Y124.362 E37.45718
G1 X191.819 Y124.997 E37.58262
G1 X192.495 Y125.475 E37.66961
G1 X192.534 Y125.506 E37.67484
G1 X193.169 Y126.073 E37.76429
G1 X193.999 Y126.903 E37.88762
G1 X194.566 Y127.538 E37.97706
G1 X194.597 Y127.577 E37.9823
G1 X195.074 Y128.251 E38.06906
G1 X195.708 Y129.26 E38.19426
G1 X196.126 Y130.018 E38.28521
G1 X196.147 Y130.062 E38.29034
G1 X196.458 Y130.819 E38.37632
G1 X196.849 Y131.939 E38.50097
G1 X197.062 Y132.664 E38.58036
G1 X197.073 Y132.71 E38.58533
G1 X197.23 Y133.607 E38.68101
G1 X197.364 Y134.789 E38.806
G1 X197.412 Y135.63 E38.89451
G1 X197.413 Y138.782 E39.22569
G1 X197.796 Y139.307 E39.29397
G1 X198.185 Y139.975 E39.37519
G1 X198.502 Y140.68 E39.4564
G1 X198.745 Y141.414 E39.53764
G1 X198.912 Y142.17 E39.61899
G1 X198.999 Y142.938 E39.7002
G1 X199.013 Y143.397 E39.74845
G1 X199.013 Y152.901 E40.74703
G1 X198.973 Y153.673 E40.82825
G1 X198.854 Y154.437 E40.90949
G1 X198.656 Y155.185 E40.99079
G1 X198.382 Y155.908 E41.07203
G1 X198.035 Y156.599 E41.15327
G1 X197.618 Y157.251 E41.23459
G1 X197.412 Y157.51 E41.26936
G1 X197.412 Y160.665 E41.60086
G1 X197.365 Y161.505 E41.68925
G1 X197.231 Y162.689 E41.81445
G1 X197.073 Y163.588 E41.91035
G1 X197.062 Y163.634 E41.91532
G1 X196.85 Y164.358 E41.99459
G1 X196.46 Y165.476 E42.119
G1 X196.148 Y166.234 E42.20512
G1 X196.127 Y166.278 E42.21025
G1 X195.711 Y167.033 E42.30082
G1 X195.077 Y168.043 E42.42611
G1 X194.613 Y168.701 E42.51071
G1 X194.583 Y168.739 E42.5158
G1 X194.001 Y169.393 E42.60778
G1 X193.169 Y170.225 E42.73141
G1 X192.534 Y170.792 E42.82085
G1 X192.495 Y170.823 E42.82609
G1 X191.821 Y171.3 E42.91285
G1 X190.812 Y171.934 E43.03805
G1 X190.054 Y172.352 E43.129
G1 X190.01 Y172.373 E43.13413
G1 X189.253 Y172.684 E43.22011
G1 X188.133 Y173.075 E43.34476
G1 X187.408 Y173.288 E43.42415
G1 X187.362 Y173.299 E43.42912
G1 X186.464 Y173.456 E43.5249
G1 X185.281 Y173.59 E43.65
G1 X184.44 Y173.638 E43.7385
G1 X176.006 Y173.639 E44.62466
G1 X175.866 Y173.82 E44.6487
G1 X175.235 Y174.537 E44.74906
G1 X175.195 Y174.577 E44.755
G1 X174.483 Y175.204 E44.85468
G1 X174.112 Y175.491 E44.90397
G1 X173.304 Y176.036 E45.00637
G1 X173.256 Y176.064 E45.01221
G1 X172.353 Y176.512 E45.11812
G1 X171.919 Y176.692 E45.16749
G1 X171.055 Y176.99 E45.26352
G1 X171.001 Y177.005 E45.2694
G1 X169.95 Y177.217 E45.38206
G1 X169.474 Y177.278 E45.43248
G1 X169.028 Y177.322 E45.47957
G1 X168.495 Y177.341 E45.5356
G1 X157.317 Y177.341 E46.71007
G1 X156.756 Y177.32 E46.76906
G1 X156.338 Y177.278 E46.8132
G1 X155.862 Y177.217 E46.86362
G1 X154.811 Y177.005 E46.97627
G1 X154.757 Y176.99 E46.98216
G1 X153.888 Y176.69 E47.07875
G1 X153.455 Y176.51 E47.12802
G1 X152.6 Y176.089 E47.22816
G1 X152.553 Y176.062 E47.23385
G1 X151.721 Y175.507 E47.33894
G1 X151.345 Y175.218 E47.38876
G1 X150.68 Y174.641 E47.48127
G1 X150.639 Y174.601 E47.48729
G1 X149.923 Y173.794 E47.60064
G1 X149.804 Y173.639 E47.62117
G1 X122.073 Y173.638 E50.53486
G1 X121.486 Y173.615 E50.59658
G1 X119.63 Y173.469 E50.79219
G1 X119.355 Y173.442 E50.82122
G1 X118.434 Y173.281 E50.91946
G1 X116.64 Y172.85 E51.11332
G1 X116.051 Y172.683 E51.17764
G1 X115.488 Y172.476 E51.24067
G1 X113.773 Y171.765 E51.43574
G1 X113.212 Y171.505 E51.5007
G1 X112.699 Y171.217 E51.56252
G1 X111.128 Y170.255 E51.75607
G1 X110.618 Y169.913 E51.82059
G1 X110.146 Y169.542 E51.88367
G1 X108.738 Y168.339 E52.07825
G1 X108.284 Y167.917 E52.14338
G1 X107.886 Y167.487 E52.20494
G1 X106.683 Y166.079 E52.39952
G1 X106.283 Y165.568 E52.4677
G1 X105.972 Y165.1 E52.52674
G1 X105.008 Y163.527 E52.72059
G1 X104.696 Y162.964 E52.78822
G1 X104.458 Y162.447 E52.84802
G1 X103.748 Y160.731 E53.04314
G1 X103.52 Y160.102 E53.11344
G1 X103.377 Y159.586 E53.1697
G1 X102.992 Y157.984 E53.34281
G1 X102.66 Y157.616 E53.39489
G1 X102.204 Y156.991 E53.47617
G1 X101.815 Y156.323 E53.55739
G1 X101.498 Y155.618 E53.63861
G1 X101.255 Y154.884 E53.71985
G1 X101.088 Y154.128 E53.8012
G1 X101.001 Y153.36 E53.88241
G1 X100.987 Y152.901 E53.93066
G1 X100.987 Y143.397 E54.92924
G1 X101.027 Y142.625 E55.01046
G1 X101.146 Y141.861 E55.0917
G1 X101.344 Y141.113 E55.173
G1 X101.618 Y140.39 E55.25424
G1 X101.965 Y139.699 E55.33548
G1 X102.382 Y139.047 E55.4168
G1 X102.863 Y138.442 E55.49801
G1 X102.994 Y138.303 E55.51808
G1 X103.378 Y136.708 E55.69045
G1 X103.52 Y136.196 E55.74628
G1 X103.748 Y135.567 E55.81657
G1 X104.458 Y133.851 E56.0117
G1 X104.696 Y133.334 E56.0715
G1 X105.007 Y132.772 E56.13898
G1 X105.971 Y131.198 E56.33292
G1 X106.283 Y130.729 E56.3921
G1 X106.686 Y130.215 E56.46073
G1 X107.886 Y128.812 E56.65471
G1 X108.305 Y128.361 E56.71939
G1 X108.566 Y128.12 E56.75671
G0 F810 X108.732 Y127.966
G0 F6000 X109.304 Y128.635
G1 F900 X110.715 Y127.428 E56.95181
G1 X111.163 Y127.076 E57.01167
G1 X111.587 Y126.793 E57.06523
G1 X113.158 Y125.831 E57.25878
G1 X113.615 Y125.576 E57.31377
G1 X114.11 Y125.346 E57.37112
G1 X115.825 Y124.635 E57.56619
G1 X116.355 Y124.441 E57.62549
G1 X116.849 Y124.303 E57.67938
G1 X118.643 Y123.873 E57.87321
G1 X119.273 Y123.754 E57.94058
G1 X119.701 Y123.706 E57.98583
G1 X121.574 Y123.559 E58.18323
G1 X122.09 Y123.539 E58.23748
G1 X184.439 Y123.54 E64.78847
G1 X185.182 Y123.582 E64.86666
G1 X186.365 Y123.716 E64.99175
G1 X187.157 Y123.855 E65.07624
G1 X187.203 Y123.866 E65.08121
G1 X187.843 Y124.054 E65.15129
G1 X188.963 Y124.445 E65.27594
G1 X189.626 Y124.717 E65.35123
G1 X189.668 Y124.737 E65.35612
G1 X190.34 Y125.107 E65.43672
G1 X191.351 Y125.742 E65.56216
G1 X191.948 Y126.164 E65.63898
G1 X191.987 Y126.195 E65.64421
G1 X192.547 Y126.695 E65.72309
G1 X193.377 Y127.525 E65.84642
G1 X193.877 Y128.085 E65.9253
G1 X193.908 Y128.124 E65.93053
G1 X194.329 Y128.72 E66.0072
G1 X194.963 Y129.729 E66.13241
G1 X195.331 Y130.397 E66.21254
G1 X195.352 Y130.441 E66.21766
G1 X195.627 Y131.109 E66.29357
G1 X196.018 Y132.229 E66.41821
G1 X196.206 Y132.869 E66.48829
G1 X196.217 Y132.915 E66.49326
G1 X196.356 Y133.707 E66.57775
G1 X196.49 Y134.889 E66.70274
G1 X196.532 Y135.63 E66.78072
G1 X196.533 Y139.102 E67.14552
G1 X196.684 Y139.271 E67.16933
G1 X197.107 Y139.862 E67.2457
G1 X197.461 Y140.496 E67.32199
G1 X197.744 Y141.165 E67.39831
G1 X197.952 Y141.861 E67.47464
G1 X198.082 Y142.576 E67.55099
G1 X198.133 Y143.397 E67.63742
G1 X198.133 Y152.901 E68.636
G1 X198.093 Y153.626 E68.71229
G1 X197.974 Y154.343 E68.78866
G1 X197.776 Y155.042 E68.86499
G1 X197.503 Y155.715 E68.9413
G1 X197.158 Y156.354 E69.0176
G1 X196.744 Y156.951 E69.09393
G1 X196.532 Y157.191 E69.12758
G1 X196.532 Y160.665 E69.49259
G1 X196.49 Y161.406 E69.57057
G1 X196.356 Y162.59 E69.69577
G1 X196.217 Y163.383 E69.78036
G1 X196.206 Y163.429 E69.78533
G1 X196.019 Y164.068 E69.85528
G1 X195.629 Y165.186 E69.97969
G1 X195.353 Y165.855 E70.05573
G1 X195.332 Y165.899 E70.06086
G1 X194.966 Y166.565 E70.1407
G1 X194.332 Y167.575 E70.266
G1 X193.922 Y168.156 E70.34071
G1 X193.892 Y168.194 E70.3458
G1 X193.379 Y168.771 E70.42692
G1 X192.547 Y169.603 E70.55055
G1 X191.987 Y170.103 E70.62943
G1 X191.948 Y170.134 E70.63466
G1 X191.352 Y170.555 E70.71133
G1 X190.343 Y171.189 E70.83654
G1 X189.675 Y171.557 E70.91667
G1 X189.631 Y171.578 E70.92179
G1 X188.963 Y171.853 E70.99769
G1 X187.843 Y172.244 E71.12234
G1 X187.203 Y172.432 E71.19242
G1 X187.157 Y172.443 E71.19739
G1 X186.365 Y172.582 E71.28188
G1 X185.182 Y172.716 E71.40697
G1 X184.44 Y172.758 E71.48506
G1 X175.557 Y172.759 E72.41839
G1 X175.454 Y172.913 E72.43786
G1 X175.169 Y173.282 E72.48684
G1 X174.613 Y173.915 E72.57537
G1 X174.573 Y173.955 E72.58131
G1 X173.944 Y174.508 E72.66931
G1 X173.573 Y174.795 E72.71859
G1 X172.861 Y175.276 E72.80887
G1 X172.813 Y175.304 E72.81471
G1 X172.015 Y175.699 E72.90827
G1 X171.581 Y175.879 E72.95763
G1 X170.819 Y176.142 E73.04233
G1 X170.765 Y176.157 E73.04822
G1 X169.838 Y176.344 E73.14758
G1 X169.362 Y176.405 E73.198
G1 X168.965 Y176.444 E73.23992
G1 X168.495 Y176.461 E73.28933
G1 X157.317 Y176.461 E74.4638
G1 X156.819 Y176.442 E74.51616
G1 X156.45 Y176.405 E74.55513
G1 X155.974 Y176.344 E74.60555
G1 X155.047 Y176.157 E74.70491
G1 X154.993 Y176.142 E74.7108
G1 X154.226 Y175.877 E74.79606
G1 X153.793 Y175.697 E74.84533
G1 X153.038 Y175.326 E74.93372
G1 X152.991 Y175.299 E74.93941
G1 X152.257 Y174.809 E75.03214
G1 X151.881 Y174.52 E75.08197
G1 X151.294 Y174.011 E75.1636
G1 X151.253 Y173.971 E75.16962
G1 X150.622 Y173.259 E75.26958
G1 X150.341 Y172.892 E75.31815
G1 X150.253 Y172.759 E75.3349
G1 X122.073 Y172.758 E78.29576
G1 X121.555 Y172.738 E78.35023
G1 X119.699 Y172.592 E78.54584
G1 X119.452 Y172.568 E78.57192
G1 X118.639 Y172.425 E78.65865
G1 X116.845 Y171.994 E78.85251
G1 X116.321 Y171.846 E78.90972
G1 X115.825 Y171.663 E78.96526
