;FLAVOR:Marlin
;TIME:1003
;Filament used: 1.82118m
;Layer height: 0.32
;MINX:116.927
;MINY:108.772
;MINZ:0.32
;MAXX:183.073
;MAXY:191.228
;MAXZ:2.12
;Generated with Cura_SteamEngine 4.9.1
M140 S90
M105
M190 S90
M104 S245
M105
M109 S245
M82 ;absolute extrusion mode
G28 ; home all axes
 M117 Purge extruder
 G92 E0 ; reset extruder
 G1 Z1.0 F3000 ; move z up little to prevent scratching of surface
 G1 X2 Y20 Z0.3 F5000.0 ; move to start-line position
 G1 X2 Y200.0 Z0.3 F1500.0 E15 ; draw 1st line
 G1 X2 Y200.0 Z0.4 F5000.0 ; move to side a little
 G1 X2 Y20 Z0.4 F1500.0 E30 ; draw 2nd line
 G92 E0 ; reset extruder
 G1 Z1.0 F3000 ; move z up little to prevent scratching of surface
G92 E0
G92 E0
G1 F1500 E-2
;LAYER_COUNT:6
;LAYER:0
M107
M205 X8 Y8
G1 F300 Z0.52
;MESH:CAT_KIT_CARD_-_KIT_TARJETA_GATO_V1.stl
G0 F6000 X171.931 Y116.107 Z0.52
;TYPE:WALL-INNER
G1 F300 Z0.32
G1 F1500 E0
G1 F900 X171.6 Y116.18 E0.03617
G1 X171.419 Y116.209 E0.05573
G1 X171.014 Y116.251 E0.09917
G1 X170.994 Y116.253 E0.10132
G1 X170.435 Y116.281 E0.16104
G1 X170.153 Y116.281 E0.19113
G1 X170.153 Y116.253
G1 X170.153 Y116.232 E0.19334
G1 X170.153 Y114.553 E0.37249
G1 X172.98 Y114.553 E0.67414
G1 X173.046 Y114.553 E0.68118
G1 X173.063 Y114.988 E0.72763
G1 X173.048 Y115.327 E0.76384
G1 X173.033 Y115.391 E0.77052
G1 X172.975 Y115.64 E0.7978
G1 X172.869 Y115.732 E0.81278
G1 X172.643 Y115.854 E0.84018
G1 X172.307 Y115.992 E0.87894
G1 X172.012 Y116.083 E0.91188
G0 F810 X171.931 Y116.107
G0 F6000 X172.162 Y116.957
G1 F900 X171.758 Y117.046 E0.95602
G1 X171.538 Y117.081 E0.97979
G1 X171.509 Y117.083 E0.9829
G1 X171.086 Y117.127 E1.02827
G1 X171.051 Y117.131 E1.03203
G1 X170.46 Y117.161 E1.09518
G1 X169.273 Y117.161 E1.22183
G1 X169.273 Y113.673 E1.59401
G1 X173.833 Y113.673 E2.08058
G1 X173.863 Y113.883 E2.10321
G1 X173.922 Y114.451 E2.16414
G1 X173.937 Y114.713 E2.19215
G1 X173.944 Y114.993 E2.22203
G1 X173.924 Y115.422 E2.26786
G1 X173.865 Y115.762 E2.30468
G1 X173.767 Y116.038 E2.33593
G1 X173.659 Y116.212 E2.35778
G1 X173.374 Y116.46 E2.39809
G1 X173.017 Y116.652 E2.44135
G1 X172.616 Y116.817 E2.48761
G1 X172.415 Y116.884 E2.51022
G1 X172.38 Y116.894 E2.51411
G0 F810 X172.162 Y116.957
G0 F6000 X172.406 Y117.803
;TYPE:WALL-OUTER
G1 F900 X172.167 Y117.862 E2.54037
G1 X171.908 Y117.913 E2.56854
G1 X171.654 Y117.953 E2.59598
G1 X171.108 Y118.009 E2.65454
G1 X170.252 Y118.053 E2.746
G1 X170.252 Y118.041 E2.74728
G1 X168.393 Y118.041 E2.94564
G1 X168.393 Y113.933 E3.38398
G1 X165.533 Y113.933 E3.68915
G1 X165.533 Y118.041 E4.12748
G1 X163.848 Y118.041 E4.30727
G1 X163.133 Y118.028 E4.38358
G1 X162.798 Y118.008 E4.41939
G1 X162.453 Y117.977 E4.45635
G1 X162.107 Y117.929 E4.49362
G1 X161.781 Y117.867 E4.52903
G1 X161.463 Y117.788 E4.56399
G1 X161.134 Y117.688 E4.60068
G1 X160.806 Y117.567 E4.63799
G1 X160.484 Y117.426 E4.6755
G1 X160.197 Y117.276 E4.71005
G1 X159.925 Y117.098 E4.74474
G1 X159.708 Y116.914 E4.77509
G1 X159.526 Y116.703 E4.80483
G1 X159.391 Y116.482 E4.83246
G1 X159.275 Y116.217 E4.86333
G1 X159.196 Y115.944 E4.89365
G1 X159.138 Y115.623 E4.92846
G1 X159.108 Y115.289 E4.96424
G1 X159.101 Y114.934 E5.00213
G1 X159.115 Y114.549 E5.04323
G1 X159.146 Y114.147 E5.08626
G1 X159.194 Y113.732 E5.13083
G1 X159.253 Y113.308 E5.17651
G1 X159.335 Y112.793 E5.23216
G1 X174.592 Y112.793 E6.86012
G1 X174.642 Y113.111 E6.89447
G1 X174.736 Y113.774 E6.96592
G1 X174.801 Y114.402 E7.03329
G1 X174.817 Y114.69 E7.06406
G1 X174.825 Y114.993 E7.09641
G1 X174.819 Y115.24 E7.12277
G1 X174.799 Y115.525 E7.15325
G1 X174.719 Y115.987 E7.20328
G1 X174.566 Y116.42 E7.25229
G1 X174.35 Y116.766 E7.29581
G1 X174.052 Y117.059 E7.3404
G1 X173.847 Y117.203 E7.36713
G1 X173.653 Y117.317 E7.39114
G1 X173.401 Y117.444 E7.42125
G1 X173.171 Y117.546 E7.4481
G1 X172.906 Y117.648 E7.4784
G1 X172.666 Y117.728 E7.50539
G1 X172.624 Y117.74 E7.51005
G0 F810 X172.406 Y117.803
G0 F6000 X172.156 Y116.868
G1 F1500 E5.51005
G1 F300 Z0.52
G0 F6000 X153.119 Y183.922 Z0.52
;TYPE:WALL-INNER
G1 F300 Z0.32
G1 F1500 E7.51005
G1 F900 X153.119 Y184.111 E7.53022
G1 X153.119 Y185.648 E7.69422
G1 X150.271 Y185.648 E7.99811
G1 X150.227 Y185.648 E8.00281
G1 X150.192 Y185.227 E8.04788
G1 X150.227 Y184.837 E8.08967
G1 X150.238 Y184.795 E8.09415
G1 X150.303 Y184.548 E8.12141
G1 X150.538 Y184.391 E8.15156
G1 X150.883 Y184.241 E8.19171
G1 X151.219 Y184.127 E8.22956
G1 X151.617 Y184.032 E8.27323
G1 X151.761 Y184.007 E8.28882
G1 X152.211 Y183.954 E8.33717
G1 X152.408 Y183.942 E8.35823
G1 X152.597 Y183.931 E8.37544
G1 X153.119 Y183.922 E8.43115
G0 F6000 X153.156 Y183.04
G1 F900 X153.193 Y183.04 E8.4351
G1 X153.999 Y183.04 E8.5211
G1 X153.999 Y183.077 E8.52493
G1 X153.999 Y186.528 E8.89317
G1 X149.436 Y186.528 E9.38005
G1 X149.376 Y186.032 E9.43336
G1 X149.309 Y185.222 E9.52009
G1 X149.354 Y184.716 E9.57429
G1 X149.423 Y184.377 E9.6112
G1 X149.521 Y184.131 E9.63946
G1 X149.636 Y183.963 E9.66118
G1 X149.844 Y183.779 E9.69081
G1 X150.129 Y183.61 E9.72617
G1 X150.337 Y183.513 E9.75066
G1 X150.583 Y183.413 E9.77899
G1 X150.977 Y183.28 E9.82337
G1 X151.432 Y183.171 E9.87329
G1 X151.611 Y183.141 E9.89265
G1 X151.641 Y183.135 E9.89592
G1 X152.125 Y183.078 E9.94792
G1 X152.576 Y183.051 E9.99613
G1 X152.929 Y183.044 E10.0338
G0 F810 X153.156 Y183.04
G1 F1500 E8.0338
G1 F300 Z0.52
G0 F6000 X170.608 Y133.45 Z0.52
;TYPE:WALL-OUTER
G1 F300 Z0.32
G1 F1500 E10.0338
G1 F900 X170.353 Y133.414 E10.06128
G1 X170.1 Y133.323 E10.08997
G1 X169.888 Y133.113 E10.12181
G1 X169.768 Y132.892 E10.14864
G1 X169.678 Y132.626 E10.17861
G1 X169.631 Y132.363 E10.20712
G1 X169.637 Y132.02 E10.24372
G1 X169.725 Y131.812 E10.26782
G1 X169.925 Y131.721 E10.29126
G1 X170.286 Y131.694 E10.32989
G1 X170.567 Y131.709 E10.35992
G1 X170.888 Y131.74 E10.39433
G1 X171.304 Y131.79 E10.43904
G1 X172.055 Y131.87 E10.51962
G1 X172.425 Y131.888 E10.55915
G1 X172.828 Y131.888 E10.60215
G1 X173.228 Y131.867 E10.64489
G1 X173.616 Y131.824 E10.68655
G1 X173.963 Y131.771 E10.724
G1 X174.335 Y131.687 E10.76469
G1 X174.411 Y131.666 E10.77311
G1 X174.411 Y131.73 E10.77994
G1 X175.338 Y131.347 E10.88696
G1 X175.655 Y131.189 E10.92475
G1 X175.951 Y131.014 E10.96144
G1 X176.229 Y130.82 E10.99762
G1 X176.473 Y130.617 E11.03148
G1 X176.697 Y130.395 E11.06514
G1 X176.904 Y130.145 E11.09977
G1 X177.092 Y129.86 E11.1362
G1 X177.127 Y129.86 E11.13993
G1 X177.547 Y128.726 E11.26897
G1 X177.441 Y128.726 E11.28028
G1 X177.449 Y128.663 E11.28705
G1 X177.458 Y128.336 E11.32196
G1 X177.445 Y128.038 E11.35379
G1 X177.403 Y127.703 E11.38981
G1 X177.343 Y127.374 E11.4255
G1 X177.329 Y127.316 E11.43186
G1 X177.374 Y127.316 E11.43666
G1 X176.968 Y126.106 E11.57285
G1 X176.738 Y125.515 E11.64052
G1 X176.604 Y125.208 E11.67626
G1 X176.459 Y124.909 E11.71172
G1 X176.302 Y124.619 E11.7469
G1 X176.148 Y124.365 E11.7786
G1 X175.96 Y124.097 E11.81353
G1 X175.753 Y123.841 E11.84866
G1 X175.525 Y123.603 E11.88383
G1 X175.286 Y123.396 E11.91756
G1 X175.032 Y123.21 E11.95116
G1 X174.747 Y123.038 E11.98668
G1 X174.452 Y122.891 E12.02184
G1 X174.145 Y122.764 E12.05729
G1 X173.831 Y122.656 E12.09273
G1 X172.99 Y122.415 E12.18607
G1 X172.99 Y122.459 E12.19077
G1 X172.881 Y122.439 E12.20259
G1 X172.551 Y122.393 E12.23815
G1 X172.251 Y122.36 E12.27035
G1 X171.596 Y122.322 E12.34036
G1 X170.978 Y122.322 E12.4063
G1 X170.371 Y122.357 E12.47118
G1 X169.7 Y122.437 E12.54328
G1 X169.144 Y122.535 E12.60352
G1 X168.499 Y122.688 E12.67426
G1 X168.499 Y122.651 E12.6782
G1 X167.33 Y123.068 E12.81064
G1 X166.775 Y123.298 E12.87474
G1 X166.201 Y123.572 E12.94261
G1 X165.669 Y123.859 E13.00711
G1 X165.151 Y124.178 E13.07202
G1 X164.631 Y124.545 E13.13993
G1 X164.377 Y124.744 E13.17436
G1 X164.133 Y124.953 E13.20864
G1 X163.898 Y125.17 E13.24277
G1 X163.694 Y125.375 E13.27363
G1 X163.479 Y125.609 E13.30754
G1 X163.273 Y125.854 E13.3417
G1 X163.079 Y126.105 E13.37555
G1 X162.912 Y126.338 E13.40613
G1 X162.736 Y126.604 E13.44017
G1 X162.569 Y126.881 E13.47468
G1 X162.27 Y127.44 E13.54232
G1 X162.018 Y127.992 E13.60707
G1 X161.786 Y128.59 E13.67551
G1 X161.594 Y129.171 E13.7408
G1 X161.422 Y129.792 E13.80956
G1 X161.154 Y130.948 E13.93618
G1 X161.17 Y130.985 E13.94048
G1 X161.071 Y131.617 E14.00874
G1 X160.997 Y132.249 E14.07664
G1 X160.945 Y132.879 E14.14409
G1 X160.917 Y133.447 E14.20477
G1 X160.908 Y134.077 E14.272
G1 X160.917 Y134.643 E14.3324
G1 X160.95 Y135.269 E14.39929
G1 X161.004 Y135.893 E14.46612
G1 X161.08 Y136.512 E14.53267
G1 X161.179 Y137.131 E14.59955
G1 X161.297 Y137.742 E14.66595
G1 X161.422 Y138.288 E14.72572
G1 X161.579 Y138.89 E14.79211
G1 X161.76 Y139.486 E14.85857
G1 X161.959 Y140.075 E14.92491
G1 X162.178 Y140.656 E14.99116
G1 X162.391 Y141.171 E15.05063
G1 X162.644 Y141.737 E15.11678
G1 X162.912 Y142.295 E15.18283
G1 X163.196 Y142.846 E15.24897
G1 X163.461 Y143.334 E15.30823
G1 X163.772 Y143.872 E15.37453
G1 X164.091 Y144.401 E15.44045
G1 X164.723 Y145.385 E15.56523
G1 X165.419 Y146.396 E15.6962
G1 X166.145 Y147.383 E15.82694
G1 X166.856 Y148.301 E15.95084
G1 X167.586 Y149.202 E16.07457
G1 X168.377 Y150.138 E16.20533
G1 X169.26 Y151.149 E16.34856
G1 X170.786 Y152.878 E16.59463
G1 X171.537 Y153.753 E16.71767
G1 X172.258 Y154.624 E16.83832
G1 X172.956 Y155.522 E16.95968
G1 X173.307 Y156.001 E17.02304
G1 X173.648 Y156.488 E17.08648
G1 X173.982 Y156.992 E17.15099
G1 X174.306 Y157.512 E17.21637
G1 X174.57 Y157.959 E17.27176
G1 X174.851 Y158.468 E17.3338
G1 X175.124 Y158.994 E17.39703
G1 X175.377 Y159.522 E17.45951
G1 X175.603 Y160.021 E17.51796
G1 X175.831 Y160.571 E17.58149
G1 X176.043 Y161.129 E17.64518
G1 X176.241 Y161.695 E17.70916
G1 X176.406 Y162.218 E17.76768
G1 X176.566 Y162.784 E17.83044
G1 X176.712 Y163.367 E17.89457
G1 X176.842 Y163.969 E17.96028
G1 X176.937 Y164.489 E18.01669
G1 X177.03 Y165.087 E18.08126
G1 X177.103 Y165.704 E18.14756
G1 X177.154 Y166.285 E18.20979
G1 X177.185 Y166.843 E18.26942
G1 X177.212 Y167.863 E18.3783
G1 X177.152 Y168.936 E18.49297
G1 X177.084 Y169.64 E18.56844
G1 X176.988 Y170.337 E18.64351
G1 X176.871 Y170.98 E18.71325
G1 X176.72 Y171.651 E18.78663
G1 X176.531 Y172.335 E18.86235
G1 X176.328 Y172.96 E18.93247
G1 X176.071 Y173.629 E19.00894
G1 X175.792 Y174.255 E19.08207
G1 X175.501 Y174.825 E19.15036
G1 X175.159 Y175.423 E19.22387
G1 X174.793 Y175.992 E19.29606
G1 X174.413 Y176.529 E19.36625
G1 X173.971 Y177.098 E19.44313
G1 X173.533 Y177.619 E19.51576
G1 X173.091 Y178.106 E19.58593
G1 X172.556 Y178.656 E19.66781
G1 X172.031 Y179.161 E19.74553
G1 X171.526 Y179.622 E19.81849
G1 X170.917 Y180.163 E19.90541
G1 X170.403 Y180.626 E19.97923
G1 X169.854 Y181.144 E20.05977
G1 X169.587 Y181.415 E20.10036
G1 X169.333 Y181.689 E20.14023
G1 X169.091 Y181.97 E20.1798
G1 X168.862 Y182.259 E20.21914
G1 X168.649 Y182.56 E20.25849
G1 X168.455 Y182.869 E20.29742
G1 X168.283 Y183.19 E20.33628
G1 X168.134 Y183.525 E20.3754
G1 X167.819 Y184.413 E20.47594
G1 X167.889 Y184.413 E20.48341
G1 X167.862 Y184.563 E20.49967
G1 X167.819 Y184.929 E20.53899
G1 X167.799 Y185.3 E20.57863
G1 X167.797 Y185.673 E20.61843
G1 X167.811 Y186.047 E20.65837
G1 X167.832 Y186.394 E20.69546
G1 X167.919 Y187.209 E20.78292
G1 X167.945 Y187.408 E20.80433
G1 X148.681 Y187.408 E22.85986
G1 X148.563 Y186.644 E22.94234
G1 X148.502 Y186.137 E22.99683
G1 X148.426 Y185.218 E23.09523
G1 X148.479 Y184.612 E23.16014
G1 X148.521 Y184.359 E23.1875
G1 X148.582 Y184.109 E23.21496
G1 X148.74 Y183.714 E23.26035
G1 X148.972 Y183.374 E23.30427
G1 X149.306 Y183.079 E23.35182
G1 X149.522 Y182.938 E23.37935
G1 X149.735 Y182.822 E23.40523
G1 X149.988 Y182.704 E23.43501
G1 X150.252 Y182.597 E23.46541
G1 X150.48 Y182.514 E23.4913
G1 X150.747 Y182.43 E23.52117
G1 X151 Y182.363 E23.54909
G1 X151.248 Y182.31 E23.57615
G1 X151.521 Y182.263 E23.60571
G1 X152.039 Y182.202 E23.66136
G1 X152.555 Y182.171 E23.71652
G1 X153.177 Y182.16 E23.7829
G1 X154.879 Y182.16 E23.96451
G1 X154.879 Y186.268 E24.40284
G1 X157.739 Y186.268 E24.70801
G1 X157.739 Y182.159 E25.14646
G1 X159.671 Y182.144 E25.35261
G1 X160.642 Y182.112 E25.45628
G1 X161.266 Y182.087 E25.52291
G1 X161.53 Y182.072 E25.55113
G1 X162.168 Y182.03 E25.61935
G1 X162.571 Y181.994 E25.66252
G1 X162.901 Y181.956 E25.69797
G1 X163.194 Y181.916 E25.72952
G1 X163.469 Y181.87 E25.75927
G1 X163.898 Y181.773 E25.8062
G1 X164.251 Y181.662 E25.84569
G1 X164.503 Y181.562 E25.87462
G1 X164.823 Y181.417 E25.9121
G1 X165.676 Y181.007 E26.01309
G1 X166.585 Y180.537 E26.12228
G1 X167.479 Y180.036 E26.23163
G1 X168.354 Y179.502 E26.34101
G1 X168.87 Y179.164 E26.40683
G1 X169.264 Y178.893 E26.45785
G1 X169.704 Y178.577 E26.51566
G1 X170.082 Y178.292 E26.56617
G1 X170.504 Y177.956 E26.62373
G1 X170.866 Y177.654 E26.67403
G1 X171.268 Y177.299 E26.73126
G1 X171.656 Y176.935 E26.78802
G1 X172.009 Y176.583 E26.84122
G1 X172.349 Y176.224 E26.89398
G1 X172.678 Y175.854 E26.94681
G1 X173.011 Y175.449 E27.00275
G1 X173.308 Y175.061 E27.05489
G1 X173.591 Y174.664 E27.10691
G1 X173.857 Y174.255 E27.15897
G1 X174.108 Y173.837 E27.211
G1 X174.353 Y173.381 E27.26623
G1 X174.565 Y172.945 E27.31796
G1 X174.758 Y172.499 E27.36982
G1 X174.933 Y172.043 E27.42193
G1 X175.087 Y171.58 E27.474
G1 X175.23 Y171.085 E27.52898
G1 X175.347 Y170.612 E27.58097
G1 X175.446 Y170.134 E27.63305
G1 X175.528 Y169.652 E27.68522
G1 X175.593 Y169.169 E27.73723
G1 X175.644 Y168.652 E27.79266
G1 X175.676 Y168.165 E27.84473
G1 X175.69 Y167.713 E27.89299
G1 X175.692 Y167.195 E27.94826
G1 X175.68 Y166.743 E27.99651
G1 X175.648 Y166.228 E28.05156
G1 X175.602 Y165.721 E28.10588
G1 X175.55 Y165.278 E28.15348
G1 X175.474 Y164.778 E28.20744
G1 X175.397 Y164.346 E28.25426
G1 X175.294 Y163.858 E28.30748
G1 X175.18 Y163.38 E28.35992
G1 X175.096 Y163.068 E28.39439
G1 X175.117 Y163.068 E28.39663
G1 X174.775 Y162.035 E28.51274
G1 X174.631 Y161.633 E28.55831
G1 X174.458 Y161.185 E28.60955
G1 X174.296 Y160.793 E28.65481
G1 X173.924 Y159.973 E28.75089
G1 X173.516 Y159.169 E28.84709
G1 X173.047 Y158.325 E28.95012
G1 X172.578 Y157.55 E29.04678
G1 X172.05 Y156.734 E29.15048
G1 X171.535 Y155.979 E29.248
G1 X171.001 Y155.232 E29.34598
G1 X170.45 Y154.49 E29.44459
G1 X169.85 Y153.705 E29.55002
G1 X169.238 Y152.919 E29.65631
G1 X168.074 Y151.448 E29.85647
G1 X166.905 Y149.96 E30.05838
G1 X166.368 Y149.26 E30.15252
G1 X165.758 Y148.446 E30.26106
G1 X165.203 Y147.681 E30.36191
G1 X164.651 Y146.89 E30.46483
G1 X164.122 Y146.092 E30.56699
G1 X163.611 Y145.278 E30.66954
G1 X163.121 Y144.447 E30.77248
G1 X162.656 Y143.597 E30.87586
G1 X162.198 Y142.684 E30.98485
G1 X161.784 Y141.77 E31.09191
G1 X161.583 Y141.287 E31.14773
G1 X161.389 Y140.792 E31.20446
G1 X161.226 Y140.353 E31.25443
G1 X161.049 Y139.833 E31.31304
G1 X160.91 Y139.399 E31.36167
G1 X160.758 Y138.89 E31.41835
G1 X160.612 Y138.358 E31.47722
G1 X160.494 Y137.896 E31.52809
G1 X160.376 Y137.37 E31.58562
G1 X160.28 Y136.905 E31.63628
G1 X160.181 Y136.371 E31.69423
G1 X160.098 Y135.846 E31.75094
G1 X160.032 Y135.369 E31.80233
G1 X159.976 Y134.864 E31.85654
G1 X159.931 Y134.369 E31.90958
G1 X159.897 Y133.846 E31.9655
G1 X159.879 Y133.375 E32.01579
G1 X159.871 Y132.855 E32.07129
G1 X159.878 Y132.332 E32.1271
G1 X159.896 Y131.88 E32.17536
G1 X159.932 Y131.362 E32.23077
G1 X159.979 Y130.884 E32.28202
G1 X160.041 Y130.413 E32.33271
G1 X160.191 Y129.496 E32.43186
G1 X160.196 Y129.496 E32.43239
G1 X160.381 Y128.77 E32.51233
G1 X160.506 Y128.344 E32.5597
G1 X160.624 Y127.985 E32.60003
G1 X160.768 Y127.589 E32.64499
G1 X160.929 Y127.201 E32.68981
G1 X161.101 Y126.821 E32.73432
G1 X161.279 Y126.466 E32.77669
G1 X161.464 Y126.131 E32.81753
G1 X161.667 Y125.793 E32.8596
