;FLAVOR:Marlin
;TIME:3421
;Filament used: 6.41058m
;Layer height: 0.32
;MINX:101.707
;MINY:121.779
;MINZ:0.32
;MAXX:198.293
;MAXY:178.221
;MAXZ:20.04
;Generated with Cura_SteamEngine 4.9.1
M140 S90
M105
M190 S90
M104 S245
M105
M109 S245
M82 ;absolute extrusion mode
G28 ; home all axes
 M117 Purge extruder
 G92 E0 ; reset extruder
 G1 Z1.0 F3000 ; move z up little to prevent scratching of surface
 G1 X2 Y20 Z0.3 F5000.0 ; move to start-line position
 G1 X2 Y200.0 Z0.3 F1500.0 E15 ; draw 1st line
 G1 X2 Y200.0 Z0.4 F5000.0 ; move to side a little
 G1 X2 Y20 Z0.4 F1500.0 E30 ; draw 2nd line
 G92 E0 ; reset extruder
 G1 Z1.0 F3000 ; move z up little to prevent scratching of surface
G92 E0
G92 E0
G1 F1500 E-2
;LAYER_COUNT:62
;LAYER:0
M107
M205 X8 Y8
G1 F300 Z0.52
G0 F6000 X109.574 Y129.789 Z0.52
;TYPE:SKIRT
G1 F300 Z0.32
G1 F1500 E0
G1 F900 X110.131 Y129.353 E0.07432
G1 X110.668 Y128.994 E0.14219
G1 X112.239 Y128.032 E0.33574
G1 X112.809 Y127.713 E0.40437
G1 X113.436 Y127.422 E0.477
G1 X115.151 Y126.711 E0.67207
G1 X115.814 Y126.469 E0.74622
G1 X116.438 Y126.293 E0.81435
G1 X118.232 Y125.863 E1.00818
G1 X119.031 Y125.712 E1.09362
G1 X119.563 Y125.654 E1.14984
G1 X121.436 Y125.507 E1.34725
G1 X122.09 Y125.481 E1.41602
G1 X149.393 Y125.481 E4.28473
G1 X150.024 Y124.769 E4.38469
G1 X150.065 Y124.729 E4.39071
G1 X150.8 Y124.091 E4.49297
G1 X151.175 Y123.802 E4.54271
G1 X152.179 Y123.138 E4.66919
G1 X152.227 Y123.111 E4.67497
G1 X153.117 Y122.677 E4.77901
G1 X153.55 Y122.497 E4.82828
G1 X154.521 Y122.162 E4.9362
G1 X154.575 Y122.147 E4.94209
G1 X155.75 Y121.91 E5.06804
G1 X156.226 Y121.849 E5.11846
G1 X156.721 Y121.8 E5.17072
G1 X157.317 Y121.779 E5.23338
G1 X168.495 Y121.779 E6.40785
G1 X169.119 Y121.802 E6.47346
G1 X169.586 Y121.849 E6.52277
G1 X170.062 Y121.91 E6.5732
G1 X171.237 Y122.147 E6.69914
G1 X171.291 Y122.162 E6.70503
G1 X172.253 Y122.494 E6.81195
G1 X172.685 Y122.673 E6.86109
G1 X173.679 Y123.164 E6.97757
G1 X173.729 Y123.193 E6.98365
G1 X174.65 Y123.813 E7.1003
G1 X175.021 Y124.1 E7.14958
G1 X175.817 Y124.801 E7.26102
G1 X175.855 Y124.839 E7.26667
G1 X176.421 Y125.481 E7.3566
G1 X184.439 Y125.482 E8.19905
G1 X185.378 Y125.535 E8.29786
G1 X186.562 Y125.669 E8.42306
G1 X187.566 Y125.845 E8.53016
G1 X187.612 Y125.856 E8.53513
G1 X188.423 Y126.094 E8.62393
G1 X189.543 Y126.485 E8.74857
G1 X190.382 Y126.83 E8.84389
G1 X190.424 Y126.85 E8.84878
G1 X191.277 Y127.319 E8.95106
G1 X192.288 Y127.954 E9.0765
G1 X193.043 Y128.489 E9.17372
G1 X193.082 Y128.52 E9.17896
G1 X193.791 Y129.153 E9.27882
G1 X194.621 Y129.983 E9.40215
G1 X195.254 Y130.692 E9.50201
G1 X195.285 Y130.731 E9.50725
G1 X195.82 Y131.485 E9.60439
G1 X196.454 Y132.494 E9.72959
G1 X196.92 Y133.341 E9.83117
G1 X196.941 Y133.385 E9.83629
G1 X197.289 Y134.231 E9.93241
G1 X197.68 Y135.351 E10.05705
G1 X197.918 Y136.162 E10.14585
G1 X197.929 Y136.208 E10.15082
G1 X198.105 Y137.21 E10.25772
G1 X198.239 Y138.392 E10.3827
G1 X198.292 Y139.334 E10.48183
G1 X198.293 Y164.341 E13.10931
G1 X198.286 Y164.688 E13.14578
G1 X198.239 Y165.308 E13.21111
G1 X198.105 Y166.491 E13.3362
G1 X197.929 Y167.494 E13.44319
G1 X197.918 Y167.54 E13.44816
G1 X197.681 Y168.35 E13.53684
G1 X197.291 Y169.468 E13.66125
G1 X196.942 Y170.315 E13.7575
G1 X196.921 Y170.359 E13.76262
G1 X196.457 Y171.203 E13.86382
G1 X195.823 Y172.213 E13.98911
G1 X195.304 Y172.948 E14.08365
G1 X195.274 Y172.986 E14.08874
G1 X194.623 Y173.717 E14.19159
G1 X193.791 Y174.549 E14.31522
G1 X193.082 Y175.182 E14.41508
G1 X193.043 Y175.213 E14.42031
G1 X192.289 Y175.748 E14.51745
G1 X191.28 Y176.382 E14.64266
G1 X190.433 Y176.848 E14.74423
G1 X190.389 Y176.869 E14.74936
G1 X189.543 Y177.217 E14.84547
G1 X188.423 Y177.608 E14.97011
G1 X187.612 Y177.846 E15.05892
G1 X187.566 Y177.857 E15.06389
G1 X186.563 Y178.033 E15.17088
G1 X185.38 Y178.167 E15.29598
G1 X184.439 Y178.22 E15.395
G1 X122.091 Y178.221 E21.94588
G1 X121.437 Y178.195 E22.01465
G1 X119.563 Y178.048 E22.21215
G1 X119.258 Y178.019 E22.24435
G1 X118.228 Y177.839 E22.35421
G1 X116.434 Y177.408 E22.54807
G1 X115.78 Y177.222 E22.61951
G1 X115.151 Y176.991 E22.68991
G1 X113.436 Y176.28 E22.88498
G1 X112.809 Y175.989 E22.9576
G1 X112.239 Y175.67 E23.02624
G1 X110.668 Y174.708 E23.21979
G1 X110.102 Y174.328 E23.29142
G1 X109.571 Y173.91 E23.36242
G1 X108.16 Y172.703 E23.55752
G1 X107.659 Y172.237 E23.62941
G1 X107.217 Y171.76 E23.69773
G1 X106.017 Y170.357 E23.89171
G1 X105.567 Y169.782 E23.96843
G1 X105.221 Y169.261 E24.03414
G1 X104.257 Y167.687 E24.22807
G1 X103.909 Y167.06 E24.30342
G1 X103.645 Y166.485 E24.3699
G1 X102.935 Y164.769 E24.56502
G1 X102.681 Y164.067 E24.64346
G1 X102.521 Y163.492 E24.70617
G1 X102.085 Y161.675 E24.9025
G1 X101.933 Y160.874 E24.98816
G1 X101.874 Y160.34 E25.04461
G1 X101.732 Y158.525 E25.2359
G1 X101.707 Y157.872 E25.30456
G1 X101.709 Y145.796 E26.57338
G1 X101.735 Y145.141 E26.64225
G1 X101.873 Y143.388 E26.82701
G1 X101.916 Y142.971 E26.87105
G1 X101.927 Y142.886 E26.88006
G1 X102.089 Y142.006 E26.97407
G1 X102.521 Y140.208 E27.16837
G1 X102.681 Y139.635 E27.23087
G1 X102.935 Y138.933 E27.30931
G1 X103.645 Y137.217 E27.50444
G1 X103.909 Y136.642 E27.57091
G1 X104.258 Y136.013 E27.64649
G1 X105.222 Y134.44 E27.84034
G1 X105.567 Y133.921 E27.90582
G1 X106.014 Y133.349 E27.98209
G1 X107.217 Y131.941 E28.17667
G1 X107.686 Y131.437 E28.24901
G1 X108.166 Y130.992 E28.31778
G1 X109.402 Y129.936 E28.48859
G0 F810 X109.574 Y129.789
G0 F6000 X110.146 Y130.458
G1 F900 X110.647 Y130.066 E28.55543
G1 X111.128 Y129.745 E28.61619
G1 X112.699 Y128.783 E28.80974
G1 X113.212 Y128.495 E28.87156
G1 X113.773 Y128.235 E28.93652
G1 X115.488 Y127.524 E29.13159
G1 X116.085 Y127.306 E29.19837
G1 X116.644 Y127.149 E29.25937
G1 X118.438 Y126.719 E29.45321
G1 X119.152 Y126.584 E29.52955
G1 X119.632 Y126.531 E29.58029
G1 X121.505 Y126.384 E29.77769
G1 X122.09 Y126.361 E29.83921
G1 X149.804 Y126.361 E32.75111
G1 X149.923 Y126.206 E32.77164
G1 X150.639 Y125.399 E32.88499
G1 X150.68 Y125.359 E32.89101
G1 X151.337 Y124.788 E32.98247
G1 X151.712 Y124.499 E33.03221
G1 X152.611 Y123.905 E33.14543
G1 X152.659 Y123.878 E33.15121
G1 X153.455 Y123.49 E33.24425
G1 X153.888 Y123.31 E33.29352
G1 X154.757 Y123.01 E33.39012
G1 X154.811 Y122.995 E33.39601
G1 X155.862 Y122.783 E33.50866
G1 X156.338 Y122.722 E33.55908
G1 X156.784 Y122.678 E33.60617
G1 X157.317 Y122.659 E33.66221
G1 X168.495 Y122.659 E34.83667
G1 X169.056 Y122.68 E34.89566
G1 X169.474 Y122.722 E34.9398
G1 X169.95 Y122.783 E34.99022
G1 X171.001 Y122.995 E35.10287
G1 X171.055 Y123.01 E35.10876
G1 X171.916 Y123.307 E35.20446
G1 X172.348 Y123.486 E35.25359
G1 X173.238 Y123.926 E35.35791
G1 X173.288 Y123.955 E35.36398
G1 X174.112 Y124.509 E35.46831
G1 X174.483 Y124.796 E35.51759
G1 X175.195 Y125.423 E35.61727
G1 X175.233 Y125.461 E35.62292
G1 X175.86 Y126.173 E35.7226
G1 X176.006 Y126.361 E35.74761
G1 X184.439 Y126.362 E36.63366
G1 X185.279 Y126.409 E36.72206
G1 X186.463 Y126.543 E36.84725
G1 X187.362 Y126.701 E36.94316
G1 X187.408 Y126.712 E36.94813
G1 X188.133 Y126.925 E37.02752
G1 X189.253 Y127.316 E37.15217
G1 X190.004 Y127.625 E37.23749
G1 X190.046 Y127.645 E37.24238
G1 X190.808 Y128.064 E37.33375
G1 X191.819 Y128.699 E37.45919
G1 X192.495 Y129.177 E37.54618
G1 X192.534 Y129.208 E37.55141
G1 X193.169 Y129.775 E37.64086
G1 X193.999 Y130.605 E37.76419
G1 X194.566 Y131.24 E37.85363
G1 X194.597 Y131.279 E37.85887
G1 X195.074 Y131.953 E37.94563
G1 X195.708 Y132.962 E38.07083
G1 X196.126 Y133.72 E38.16178
G1 X196.147 Y133.764 E38.16691
G1 X196.458 Y134.521 E38.25289
G1 X196.849 Y135.641 E38.37754
G1 X197.062 Y136.366 E38.45693
G1 X197.073 Y136.412 E38.4619
G1 X197.23 Y137.309 E38.55758
G1 X197.364 Y138.491 E38.68257
G1 X197.412 Y139.334 E38.77129
G1 X197.413 Y164.341 E41.39876
G1 X197.406 Y164.654 E41.43166
G1 X197.364 Y165.209 E41.49014
G1 X197.23 Y166.392 E41.61523
G1 X197.073 Y167.29 E41.71101
G1 X197.062 Y167.336 E41.71598
G1 X196.85 Y168.06 E41.79525
G1 X196.46 Y169.178 E41.91966
G1 X196.148 Y169.936 E42.00578
G1 X196.127 Y169.98 E42.0109
G1 X195.711 Y170.735 E42.10148
G1 X195.077 Y171.745 E42.22677
G1 X194.613 Y172.403 E42.31137
G1 X194.583 Y172.441 E42.31645
G1 X194.001 Y173.095 E42.40844
G1 X193.169 Y173.927 E42.53207
G1 X192.534 Y174.494 E42.62151
G1 X192.495 Y174.525 E42.62675
G1 X191.821 Y175.002 E42.7135
G1 X190.812 Y175.636 E42.83871
G1 X190.054 Y176.054 E42.92966
G1 X190.01 Y176.075 E42.93478
G1 X189.253 Y176.386 E43.02077
G1 X188.133 Y176.777 E43.14541
G1 X187.408 Y176.99 E43.22481
G1 X187.362 Y177.001 E43.22978
G1 X186.464 Y177.158 E43.32556
G1 X185.281 Y177.292 E43.45065
G1 X184.439 Y177.34 E43.53927
G1 X122.091 Y177.341 E50.09014
G1 X121.506 Y177.318 E50.15166
G1 X119.632 Y177.171 E50.34916
G1 X119.355 Y177.144 E50.3784
G1 X118.434 Y176.983 E50.47664
G1 X116.64 Y176.552 E50.6705
G1 X116.051 Y176.385 E50.73482
G1 X115.488 Y176.178 E50.79785
G1 X113.773 Y175.467 E50.99292
G1 X113.212 Y175.207 E51.05788
G1 X112.699 Y174.919 E51.1197
G1 X111.128 Y173.957 E51.31325
G1 X110.618 Y173.615 E51.37777
G1 X110.143 Y173.241 E51.44129
G1 X108.732 Y172.034 E51.63639
G1 X108.281 Y171.615 E51.70107
G1 X107.886 Y171.188 E51.76218
G1 X106.686 Y169.785 E51.95616
G1 X106.283 Y169.271 E52.02479
G1 X105.971 Y168.802 E52.08397
G1 X105.007 Y167.228 E52.2779
G1 X104.696 Y166.666 E52.34539
G1 X104.458 Y166.149 E52.40519
G1 X103.748 Y164.433 E52.60032
G1 X103.52 Y163.804 E52.67061
G1 X103.376 Y163.286 E52.7271
G1 X102.94 Y161.469 E52.92343
G1 X102.805 Y160.753 E52.99999
G1 X102.752 Y160.271 E53.05094
G1 X102.61 Y158.456 E53.24222
G1 X102.587 Y157.872 E53.30363
G1 X102.589 Y145.796 E54.57245
G1 X102.612 Y145.21 E54.63407
G1 X102.75 Y143.457 E54.81882
G1 X102.789 Y143.084 E54.85823
G1 X102.8 Y142.999 E54.86723
G1 X102.945 Y142.212 E54.95132
G1 X103.377 Y140.414 E55.14561
G1 X103.52 Y139.898 E55.20187
G1 X103.748 Y139.269 E55.27216
G1 X104.458 Y137.553 E55.46729
G1 X104.696 Y137.036 E55.52709
G1 X105.008 Y136.473 E55.59472
G1 X105.972 Y134.9 E55.78856
G1 X106.283 Y134.432 E55.8476
G1 X106.683 Y133.921 E55.91578
G1 X107.886 Y132.513 E56.11036
G1 X108.308 Y132.059 E56.17549
G1 X108.738 Y131.661 E56.23705
G1 X109.974 Y130.605 E56.40786
G0 F810 X110.146 Y130.458
G0 F6000 X110.718 Y131.127
G1 F900 X111.163 Y130.778 E56.46728
G1 X111.587 Y130.495 E56.52084
G1 X113.158 Y129.533 E56.7144
G1 X113.615 Y129.278 E56.76938
G1 X114.11 Y129.048 E56.82673
G1 X115.825 Y128.337 E57.0218
G1 X116.355 Y128.143 E57.0811
G1 X116.849 Y128.005 E57.13499
G1 X118.643 Y127.575 E57.32882
G1 X119.273 Y127.456 E57.39619
G1 X119.701 Y127.408 E57.44144
G1 X121.574 Y127.261 E57.63884
G1 X122.09 Y127.241 E57.6931
G1 X150.253 Y127.241 E60.65217
G1 X150.341 Y127.108 E60.66893
G1 X150.622 Y126.741 E60.71749
G1 X151.253 Y126.029 E60.81745
G1 X151.294 Y125.989 E60.82347
G1 X151.874 Y125.485 E60.90421
G1 X152.249 Y125.196 E60.95395
G1 X153.042 Y124.672 E61.05382
G1 X153.09 Y124.645 E61.0596
G1 X153.793 Y124.303 E61.14174
G1 X154.226 Y124.123 E61.19101
G1 X154.993 Y123.858 E61.27628
G1 X155.047 Y123.843 E61.28216
G1 X155.974 Y123.656 E61.38153
G1 X156.45 Y123.595 E61.43195
G1 X156.847 Y123.556 E61.47386
G1 X157.317 Y123.539 E61.52328
G1 X168.495 Y123.539 E62.69774
G1 X168.993 Y123.558 E62.75011
G1 X169.362 Y123.595 E62.78907
G1 X169.838 Y123.656 E62.83949
G1 X170.765 Y123.843 E62.93886
G1 X170.819 Y123.858 E62.94474
G1 X171.579 Y124.12 E63.02921
G1 X172.011 Y124.299 E63.07834
G1 X172.796 Y124.687 E63.17035
G1 X172.846 Y124.716 E63.17642
G1 X173.573 Y125.205 E63.26848
G1 X173.944 Y125.492 E63.31776
G1 X174.573 Y126.045 E63.40576
G1 X174.611 Y126.083 E63.4114
G1 X175.164 Y126.712 E63.4994
G1 X175.451 Y127.083 E63.54869
G1 X175.558 Y127.241 E63.56874
G1 X184.438 Y127.242 E64.50175
G1 X185.18 Y127.284 E64.57984
G1 X186.364 Y127.418 E64.70504
G1 X187.157 Y127.557 E64.78963
G1 X187.203 Y127.568 E64.7946
G1 X187.843 Y127.756 E64.86468
G1 X188.963 Y128.147 E64.98932
G1 X189.626 Y128.419 E65.06462
G1 X189.668 Y128.439 E65.06951
G1 X190.34 Y128.809 E65.15011
G1 X191.351 Y129.444 E65.27555
G1 X191.948 Y129.866 E65.35237
G1 X191.987 Y129.897 E65.3576
G1 X192.547 Y130.397 E65.43648
G1 X193.377 Y131.227 E65.55981
G1 X193.877 Y131.787 E65.63869
G1 X193.908 Y131.826 E65.64392
G1 X194.329 Y132.422 E65.72059
G1 X194.963 Y133.431 E65.8458
G1 X195.331 Y134.099 E65.92593
G1 X195.352 Y134.143 E65.93105
G1 X195.627 Y134.811 E66.00695
G1 X196.018 Y135.931 E66.1316
G1 X196.206 Y136.571 E66.20168
G1 X196.217 Y136.617 E66.20665
G1 X196.356 Y137.409 E66.29114
G1 X196.49 Y138.591 E66.41613
G1 X196.532 Y139.334 E66.49432
G1 X196.533 Y164.341 E69.12179
G1 X196.527 Y164.621 E69.15122
G1 X196.49 Y165.11 E69.20275
G1 X196.356 Y166.293 E69.32784
G1 X196.217 Y167.085 E69.41232
G1 X196.206 Y167.131 E69.41729
G1 X196.019 Y167.77 E69.48725
G1 X195.629 Y168.888 E69.61166
G1 X195.353 Y169.557 E69.6877
G1 X195.332 Y169.601 E69.69282
G1 X194.966 Y170.267 E69.77267
G1 X194.332 Y171.277 E69.89796
G1 X193.922 Y171.858 E69.97268
G1 X193.892 Y171.896 E69.97776
G1 X193.379 Y172.473 E70.05889
G1 X192.547 Y173.305 E70.18251
G1 X191.987 Y173.805 E70.26139
G1 X191.948 Y173.836 E70.26663
G1 X191.352 Y174.257 E70.3433
G1 X190.343 Y174.891 E70.4685
G1 X189.675 Y175.259 E70.54863
G1 X189.631 Y175.28 E70.55376
G1 X188.963 Y175.555 E70.62966
G1 X187.843 Y175.946 E70.7543
G1 X187.203 Y176.134 E70.82439
G1 X187.157 Y176.145 E70.82936
G1 X186.365 Y176.284 E70.91384
G1 X185.182 Y176.418 E71.03894
G1 X184.439 Y176.46 E71.11713
G1 X122.091 Y176.461 E77.668
G1 X121.575 Y176.441 E77.72226
G1 X119.701 Y176.294 E77.91977
G1 X119.452 Y176.27 E77.94605
G1 X118.639 Y176.127 E78.03278
G1 X116.845 Y175.696 E78.22664
G1 X116.321 Y175.548 E78.28385
G1 X115.825 Y175.365 E78.3394
G1 X114.11 Y174.654 E78.53447
G1 X113.615 Y174.424 E78.59182
G1 X113.158 Y174.169 E78.6468
G1 X111.587 Y173.207 E78.84035
G1 X111.134 Y172.903 E78.89767
G1 X110.715 Y172.572 E78.95378
G1 X109.304 Y171.365 E79.14887
G1 X108.903 Y170.993 E79.20634
G1 X108.554 Y170.616 E79.26032
G1 X107.354 Y169.213 E79.4543
G1 X106.979 Y168.731 E79.51847
G1 X106.722 Y168.342 E79.56745
G1 X105.758 Y166.768 E79.76138
G1 X105.483 Y166.273 E79.82088
G1 X105.271 Y165.812 E79.87419
G1 X104.561 Y164.096 E80.06932
G1 X104.36 Y163.542 E80.13124
G1 X104.232 Y163.081 E80.18151
G1 X103.796 Y161.264 E80.37784
G1 X103.677 Y160.632 E80.44541
G1 X103.629 Y160.203 E80.49077
G1 X103.487 Y158.388 E80.68205
G1 X103.467 Y157.872 E80.73631
G1 X103.469 Y145.796 E82.00513
G1 X103.489 Y145.279 E82.05949
G1 X103.627 Y143.526 E82.24425
G1 X103.662 Y143.197 E82.27901
G1 X103.673 Y143.112 E82.28801
G1 X103.801 Y142.417 E82.36226
G1 X104.233 Y140.619 E82.55656
G1 X104.36 Y140.16 E82.6066
G1 X104.561 Y139.606 E82.66852
G1 X105.271 Y137.89 E82.86364
G1 X105.483 Y137.429 E82.91695
G1 X105.759 Y136.932 E82.97668
G1 X106.723 Y135.359 E83.17053
G1 X106.999 Y134.944 E83.22289
G1 X107.352 Y134.493 E83.28307
G1 X108.555 Y133.085 E83.47765
G1 X108.93 Y132.681 E83.53557
G1 X109.31 Y132.33 E83.58992
G1 X110.546 Y131.274 E83.76073
G0 F810 X110.718 Y131.127
G0 F6000 X111.289 Y131.796
G1 F900 X111.679 Y131.491 E83.81275
G1 X112.047 Y131.246 E83.8592
G1 X113.618 Y130.284 E84.05275
G1 X114.018 Y130.06 E84.10092
G1 X114.447 Y129.861 E84.15061
G1 X116.162 Y129.15 E84.34568
G1 X116.626 Y128.981 E84.39756
G1 X117.054 Y128.861 E84.44427
G1 X118.848 Y128.431 E84.6381
G1 X119.394 Y128.327 E84.6965
G1 X119.769 Y128.286 E84.73613
G1 X121.642 Y128.139 E84.93353
G1 X122.09 Y128.121 E84.98064
G1 X150.724 Y128.121 E87.98921
G1 X151.039 Y127.643 E88.04935
G1 X151.32 Y127.276 E88.09792
G1 X151.868 Y126.659 E88.18463
