;FLAVOR:Marlin
;TIME:732
;Filament used: 0.33683m
;Layer height: 0.16
;MINX:134.362
;MINY:134.365
;MINZ:0.2
;MAXX:165.639
;MAXY:165.638
;MAXZ:9.64
;Generated with Cura_SteamEngine 4.9.1
M140 S90
M105
M190 S90
M104 S240
M105
M109 S240
M82 ;absolute extrusion mode
G28 ; home all axes
 M117 Purge extruder
 G92 E0 ; reset extruder
 G1 Z1.0 F3000 ; move z up little to prevent scratching of surface
 G1 X2 Y20 Z0.3 F5000.0 ; move to start-line position
 G1 X2 Y200.0 Z0.3 F1500.0 E15 ; draw 1st line
 G1 X2 Y200.0 Z0.4 F5000.0 ; move to side a little
 G1 X2 Y20 Z0.4 F1500.0 E30 ; draw 2nd line
 G92 E0 ; reset extruder
 G1 Z1.0 F3000 ; move z up little to prevent scratching of surface
G92 E0
G92 E0
G1 F1500 E-2
;LAYER_COUNT:49
;LAYER:0
M107
G1 F300 Z0.4
G0 F6000 X138.968 Y138.916 Z0.4
;TYPE:SKIRT
G1 F300 Z0.2
G1 F1500 E0
G1 F900 X139.299 Y138.597 E0.01631
G1 X139.653 Y138.275 E0.0333
G1 X140.001 Y137.977 E0.04956
G1 X140.378 Y137.674 E0.06672
G1 X140.742 Y137.398 E0.08293
G1 X141.176 Y137.09 E0.10182
G1 X141.576 Y136.826 E0.11883
G1 X141.98 Y136.576 E0.13569
G1 X142.365 Y136.353 E0.15148
G1 X142.825 Y136.106 E0.17001
G1 X143.248 Y135.896 E0.18677
G1 X143.712 Y135.684 E0.20487
G1 X144.147 Y135.501 E0.22162
G1 X144.593 Y135.328 E0.2386
G1 X145.032 Y135.173 E0.25512
G1 X145.528 Y135.016 E0.27358
G1 X145.942 Y134.899 E0.28885
G1 X146.392 Y134.785 E0.30532
G1 X146.856 Y134.682 E0.32219
G1 X147.368 Y134.586 E0.34068
G1 X147.824 Y134.515 E0.35705
G1 X148.323 Y134.453 E0.3749
G1 X148.786 Y134.41 E0.3914
G1 X149.295 Y134.379 E0.4095
G1 X149.761 Y134.365 E0.42604
G1 X150.264 Y134.365 E0.44389
G1 X150.735 Y134.38 E0.46062
G1 X151.227 Y134.411 E0.47811
G1 X151.691 Y134.454 E0.49465
G1 X152.199 Y134.517 E0.51282
G1 X152.646 Y134.587 E0.52887
G1 X153.149 Y134.682 E0.54704
G1 X153.618 Y134.786 E0.56409
G1 X154.123 Y134.915 E0.58259
G1 X154.561 Y135.042 E0.59877
G1 X154.996 Y135.181 E0.61498
G1 X155.428 Y135.333 E0.63123
G1 X155.941 Y135.534 E0.65078
G1 X156.369 Y135.718 E0.66731
G1 X156.794 Y135.915 E0.68394
G1 X157.222 Y136.129 E0.70092
G1 X157.71 Y136.394 E0.72063
G1 X158.106 Y136.627 E0.73693
G1 X158.489 Y136.867 E0.75297
G1 X158.869 Y137.12 E0.76918
G1 X159.295 Y137.424 E0.78775
G1 X159.666 Y137.707 E0.80431
G1 X160.045 Y138.014 E0.82162
G1 X160.408 Y138.327 E0.83863
G1 X160.811 Y138.7 E0.85811
G1 X161.13 Y139.015 E0.87402
G1 X161.456 Y139.356 E0.89077
G1 X161.768 Y139.702 E0.9073
G1 X162.106 Y140.101 E0.92586
G1 X162.402 Y140.475 E0.94278
G1 X162.68 Y140.848 E0.95929
G1 X162.942 Y141.221 E0.97547
G1 X163.245 Y141.686 E0.99517
G1 X163.484 Y142.081 E1.01155
G1 X163.717 Y142.493 E1.02835
G1 X163.941 Y142.917 E1.04537
G1 X164.167 Y143.378 E1.06359
G1 X164.352 Y143.789 E1.07958
G1 X164.545 Y144.257 E1.09755
G1 X164.714 Y144.705 E1.11454
G1 X164.878 Y145.183 E1.13247
G1 X165.011 Y145.615 E1.14852
G1 X165.143 Y146.098 E1.16629
G1 X165.252 Y146.549 E1.18275
G1 X165.356 Y147.046 E1.20077
G1 X165.437 Y147.505 E1.21731
G1 X165.508 Y147.99 E1.23471
G1 X165.561 Y148.451 E1.25118
G1 X165.603 Y148.958 E1.26923
G1 X165.628 Y149.438 E1.28629
G1 X165.639 Y149.95 E1.30446
G1 X165.634 Y150.408 E1.32072
G1 X165.612 Y150.923 E1.33901
G1 X165.578 Y151.38 E1.35527
G1 X165.53 Y151.845 E1.37186
G1 X165.47 Y152.298 E1.38808
G1 X165.383 Y152.821 E1.4069
G1 X165.32 Y153.137 E1.41833
G1 X165.123 Y153.919 E1.44695
G1 X164.85 Y154.678 E1.47557
G1 X164.503 Y155.406 E1.5042
G1 X164.086 Y156.097 E1.53284
G1 X163.602 Y156.742 E1.56146
G1 X163.057 Y157.337 E1.59009
G1 X162.455 Y157.875 E1.61874
G1 X161.804 Y158.35 E1.64734
G1 X161.314 Y158.647 E1.66768
G1 X161.139 Y158.745 E1.67479
G1 X160.417 Y159.104 E1.70341
G1 X159.662 Y159.39 E1.73206
G1 X158.883 Y159.599 E1.76068
G1 X158.799 Y159.613 E1.76371
G1 X158.704 Y159.939 E1.77576
G1 X158.403 Y160.687 E1.80437
G1 X158.029 Y161.402 E1.83301
G1 X157.722 Y161.885 E1.85332
G1 X157.608 Y162.051 E1.86046
G1 X157.119 Y162.693 E1.8891
G1 X156.569 Y163.283 E1.91773
G1 X155.963 Y163.815 E1.94635
G1 X155.307 Y164.285 E1.97499
G1 X154.608 Y164.688 E2.00362
G1 X153.873 Y165.02 E2.03224
G1 X153.108 Y165.277 E2.06088
G1 X152.322 Y165.457 E2.0895
G1 X151.783 Y165.535 E2.10882
G1 X151.472 Y165.569 E2.11993
G1 X150.971 Y165.608 E2.13776
G1 X150.505 Y165.63 E2.15432
G1 X150.016 Y165.638 E2.17167
G1 X149.549 Y165.632 E2.18825
G1 X149.042 Y165.61 E2.20626
G1 X148.591 Y165.576 E2.22231
G1 X148.079 Y165.521 E2.24058
G1 X147.62 Y165.457 E2.25703
G1 X147.115 Y165.37 E2.27522
G1 X146.65 Y165.275 E2.29206
G1 X146.2 Y165.17 E2.30846
G1 X145.757 Y165.053 E2.32472
G1 X145.21 Y164.888 E2.34499
G1 X144.767 Y164.737 E2.3616
G1 X144.331 Y164.574 E2.37812
G1 X143.895 Y164.397 E2.39482
G1 X143.448 Y164.2 E2.41216
G1 X143.044 Y164.007 E2.42805
G1 X142.562 Y163.757 E2.44732
G1 X142.146 Y163.523 E2.46426
G1 X141.735 Y163.275 E2.48129
G1 X141.343 Y163.023 E2.49783
G1 X140.922 Y162.733 E2.51597
G1 X140.559 Y162.466 E2.53196
G1 X140.169 Y162.161 E2.54953
G1 X139.802 Y161.855 E2.56649
G1 X139.431 Y161.526 E2.58409
G1 X139.099 Y161.213 E2.60028
G1 X138.746 Y160.858 E2.61805
G1 X138.429 Y160.52 E2.63449
G1 X138.072 Y160.114 E2.65368
G1 X137.771 Y159.747 E2.67052
G1 X137.484 Y159.376 E2.68717
G1 X137.219 Y159.012 E2.70315
G1 X136.919 Y158.57 E2.72211
G1 X136.663 Y158.165 E2.73911
G1 X136.412 Y157.739 E2.75666
G1 X136.192 Y157.339 E2.77286
G1 X136.014 Y156.998 E2.78651
G1 X135.924 Y156.812 E2.79384
G1 X135.752 Y156.445 E2.80823
G1 X135.565 Y156.014 E2.8249
G1 X135.397 Y155.594 E2.84095
G1 X135.221 Y155.108 E2.8593
G1 X135.076 Y154.666 E2.8758
G1 X134.939 Y154.204 E2.89291
G1 X134.818 Y153.745 E2.90975
G1 X134.7 Y153.229 E2.92854
G1 X134.612 Y152.778 E2.94484
G1 X134.555 Y152.453 E2.95655
G1 X134.518 Y152.199 E2.96566
G1 X134.466 Y151.796 E2.98008
G1 X134.42 Y151.331 E2.99667
G1 X134.388 Y150.881 E3.01268
G1 X134.367 Y150.392 E3.03005
G1 X134.362 Y149.928 E3.04651
G1 X134.373 Y149.42 E3.06455
G1 X134.397 Y148.955 E3.08107
G1 X134.44 Y148.437 E3.09952
G1 X134.493 Y147.98 E3.11584
G1 X134.564 Y147.498 E3.13313
G1 X134.648 Y147.024 E3.15022
G1 X134.762 Y146.486 E3.16973
G1 X134.876 Y146.026 E3.18655
G1 X135.002 Y145.575 E3.20317
G1 X135.143 Y145.12 E3.22008
G1 X135.323 Y144.6 E3.2396
G1 X135.485 Y144.18 E3.25558
G1 X135.667 Y143.747 E3.27225
G1 X135.857 Y143.328 E3.28858
G1 X136.09 Y142.856 E3.30726
G1 X136.318 Y142.429 E3.32443
G1 X136.563 Y142.001 E3.34194
G1 X136.799 Y141.617 E3.35793
G1 X137.088 Y141.179 E3.37655
G1 X137.356 Y140.8 E3.39303
G1 X137.652 Y140.407 E3.41049
G1 X137.952 Y140.033 E3.4275
G1 X138.279 Y139.65 E3.44538
G1 X138.589 Y139.309 E3.46173
G1 X138.604 Y139.322 E3.46243
G1 X138.968 Y138.916 E3.48179
G0 F6000 X139.274 Y139.233
G1 F900 X139.605 Y138.914 E3.4981
G1 X139.94 Y138.609 E3.51418
G1 X140.288 Y138.311 E3.53044
G1 X140.644 Y138.024 E3.54667
G1 X141.008 Y137.748 E3.56288
G1 X141.419 Y137.458 E3.58073
G1 X141.819 Y137.194 E3.59774
G1 X142.201 Y136.957 E3.61369
G1 X142.586 Y136.734 E3.62948
G1 X143.021 Y136.5 E3.64701
G1 X143.444 Y136.29 E3.66377
G1 X143.882 Y136.089 E3.68087
G1 X144.317 Y135.906 E3.69762
G1 X144.739 Y135.743 E3.71367
G1 X145.178 Y135.588 E3.7302
G1 X145.648 Y135.439 E3.74769
G1 X146.062 Y135.322 E3.76296
G1 X146.487 Y135.215 E3.77851
G1 X146.951 Y135.112 E3.79538
G1 X147.435 Y135.021 E3.81286
G1 X147.891 Y134.95 E3.82924
G1 X148.364 Y134.891 E3.84615
G1 X148.827 Y134.848 E3.86266
G1 X149.308 Y134.818 E3.87976
G1 X149.774 Y134.804 E3.8963
G1 X150.25 Y134.805 E3.9132
G1 X150.721 Y134.82 E3.92992
G1 X151.187 Y134.849 E3.94649
G1 X151.651 Y134.892 E3.96303
G1 X152.131 Y134.952 E3.98019
G1 X152.578 Y135.022 E3.99625
G1 X153.054 Y135.112 E4.01344
G1 X153.523 Y135.216 E4.03049
G1 X154 Y135.338 E4.04796
G1 X154.438 Y135.465 E4.06415
G1 X154.85 Y135.596 E4.07949
G1 X155.282 Y135.748 E4.09574
G1 X155.767 Y135.938 E4.11423
G1 X156.195 Y136.122 E4.13076
G1 X156.598 Y136.309 E4.14653
G1 X157.026 Y136.523 E4.16351
G1 X157.487 Y136.774 E4.18214
G1 X157.883 Y137.007 E4.19844
G1 X158.245 Y137.234 E4.21361
G1 X158.625 Y137.487 E4.22981
G1 X159.028 Y137.774 E4.24737
G1 X159.399 Y138.057 E4.26393
G1 X159.757 Y138.347 E4.28028
G1 X160.12 Y138.66 E4.29729
G1 X160.502 Y139.013 E4.31575
G1 X160.821 Y139.328 E4.33166
G1 X161.129 Y139.65 E4.34747
G1 X161.441 Y139.996 E4.364
G1 X161.761 Y140.374 E4.38158
G1 X162.057 Y140.748 E4.39851
G1 X162.32 Y141.101 E4.41413
G1 X162.582 Y141.474 E4.4303
G1 X162.869 Y141.914 E4.44895
G1 X163.108 Y142.309 E4.46533
G1 X163.328 Y142.698 E4.48119
G1 X163.552 Y143.122 E4.49821
G1 X163.765 Y143.558 E4.51543
G1 X163.95 Y143.969 E4.53143
G1 X164.133 Y144.412 E4.54844
G1 X164.302 Y144.86 E4.56543
G1 X164.457 Y145.312 E4.58239
G1 X164.59 Y145.744 E4.59843
G1 X164.716 Y146.201 E4.61525
G1 X164.825 Y146.652 E4.63172
G1 X164.923 Y147.123 E4.64879
G1 X165.004 Y147.582 E4.66533
G1 X165.071 Y148.041 E4.68179
G1 X165.124 Y148.502 E4.69826
G1 X165.164 Y148.981 E4.71532
G1 X165.189 Y149.461 E4.73238
G1 X165.199 Y149.945 E4.74956
G1 X165.194 Y150.403 E4.76581
G1 X165.173 Y150.89 E4.78311
G1 X165.139 Y151.347 E4.79937
G1 X165.093 Y151.787 E4.81507
G1 X165.033 Y152.24 E4.83129
G1 X164.951 Y152.734 E4.84906
G1 X164.888 Y153.05 E4.8605
G1 X164.696 Y153.811 E4.88835
G1 X164.427 Y154.548 E4.91619
G1 X164.085 Y155.254 E4.94403
G1 X163.672 Y155.922 E4.9719
G1 X163.194 Y156.544 E4.99974
G1 X162.655 Y157.114 E5.02758
G1 X162.061 Y157.626 E5.05541
G1 X161.099 Y158.263 E5.09636
G1 X160.924 Y158.361 E5.10348
G1 X160.221 Y158.709 E5.13132
G1 X159.486 Y158.984 E5.15917
G1 X158.727 Y159.182 E5.187
G1 X158.46 Y159.223 E5.19659
G1 X158.245 Y159.917 E5.22237
G1 X157.939 Y160.639 E5.2502
G1 X157.359 Y161.636 E5.29114
G1 X157.245 Y161.802 E5.29828
G1 X156.769 Y162.425 E5.32611
G1 X156.231 Y162.997 E5.35397
G1 X155.638 Y163.511 E5.38182
G1 X154.996 Y163.962 E5.40967
G1 X154.312 Y164.345 E5.43749
G1 X153.592 Y164.656 E5.46532
G1 X152.844 Y164.893 E5.49317
G1 X151.735 Y165.097 E5.53318
G1 X151.424 Y165.131 E5.54429
G1 X150.95 Y165.168 E5.56116
G1 X150.484 Y165.19 E5.57772
G1 X150.022 Y165.198 E5.59411
G1 X149.555 Y165.192 E5.61069
G1 X149.075 Y165.171 E5.62774
G1 X148.624 Y165.137 E5.64379
G1 X148.14 Y165.085 E5.66107
G1 X147.681 Y165.021 E5.67751
G1 X147.203 Y164.939 E5.69472
G1 X146.738 Y164.844 E5.71157
G1 X146.313 Y164.745 E5.72705
G1 X145.87 Y164.628 E5.74331
G1 X145.352 Y164.471 E5.76252
G1 X144.909 Y164.32 E5.77913
G1 X144.497 Y164.167 E5.79473
G1 X144.061 Y163.99 E5.81143
G1 X143.638 Y163.803 E5.82784
G1 X143.234 Y163.61 E5.84373
G1 X142.778 Y163.373 E5.86197
G1 X142.362 Y163.139 E5.87891
G1 X141.973 Y162.905 E5.89502
G1 X141.581 Y162.653 E5.91156
G1 X141.183 Y162.379 E5.9287
G1 X140.82 Y162.112 E5.9447
G1 X140.451 Y161.823 E5.96133
G1 X140.084 Y161.517 E5.97829
G1 X139.733 Y161.206 E5.99493
G1 X139.401 Y160.893 E6.01112
G1 X139.067 Y160.557 E6.02794
G1 X138.75 Y160.219 E6.04438
G1 X138.412 Y159.835 E6.06254
G1 X138.111 Y159.468 E6.07938
G1 X137.84 Y159.117 E6.09512
G1 X137.575 Y158.753 E6.1111
G1 X137.291 Y158.335 E6.12903
G1 X137.035 Y157.93 E6.14603
G1 X136.797 Y157.527 E6.16264
G1 X136.577 Y157.127 E6.17884
G1 X136.408 Y156.802 E6.19184
G1 X136.323 Y156.626 E6.19878
G1 X136.151 Y156.259 E6.21316
G1 X135.974 Y155.851 E6.22895
G1 X135.806 Y155.431 E6.245
G1 X135.639 Y154.971 E6.26237
G1 X135.494 Y154.529 E6.27888
G1 X135.364 Y154.092 E6.29506
G1 X135.243 Y153.633 E6.3119
G1 X135.132 Y153.145 E6.32966
G1 X135.044 Y152.694 E6.34597
G1 X134.989 Y152.383 E6.35718
G1 X134.954 Y152.142 E6.36582
G1 X134.902 Y151.739 E6.38024
G1 X134.858 Y151.3 E6.3959
G1 X134.826 Y150.85 E6.41191
G1 X134.807 Y150.387 E6.42835
G1 X134.802 Y149.923 E6.44482
G1 X134.812 Y149.443 E6.46186
G1 X134.836 Y148.978 E6.47838
G1 X134.877 Y148.488 E6.49583
G1 X134.93 Y148.031 E6.51216
G1 X134.997 Y147.574 E6.52855
G1 X135.081 Y147.1 E6.54564
G1 X135.189 Y146.592 E6.56407
G1 X135.303 Y146.132 E6.58089
G1 X135.422 Y145.705 E6.59662
G1 X135.563 Y145.25 E6.61352
G1 X135.734 Y144.758 E6.63201
G1 X135.896 Y144.338 E6.64798
G1 X136.067 Y143.929 E6.66372
G1 X136.257 Y143.51 E6.68004
G1 X136.478 Y143.063 E6.69774
G1 X136.706 Y142.636 E6.71492
G1 X136.938 Y142.231 E6.73148
G1 X137.174 Y141.847 E6.74748
G1 X137.447 Y141.433 E6.76508
G1 X137.715 Y141.054 E6.78155
G1 X137.996 Y140.682 E6.79809
G1 X138.296 Y140.308 E6.81511
G1 X138.604 Y139.946 E6.83198
G1 X138.914 Y139.605 E6.84833
G1 X138.928 Y139.618 E6.84901
G1 X139.274 Y139.233 E6.86738
G0 F6000 X139.579 Y139.55
G1 F900 X139.91 Y139.231 E6.88369
G1 X140.226 Y138.944 E6.89884
G1 X140.574 Y138.646 E6.9151
G1 X140.91 Y138.375 E6.93042
G1 X141.274 Y138.099 E6.94663
G1 X141.661 Y137.825 E6.96346
G1 X142.061 Y137.561 E6.98047
G1 X142.421 Y137.338 E6.9955
G1 X142.806 Y137.115 E7.01129
G1 X143.217 Y136.894 E7.02785
G1 X143.64 Y136.684 E7.04461
G1 X144.053 Y136.495 E7.06073
G1 X144.488 Y136.312 E7.07747
G1 X144.886 Y136.158 E7.09262
G1 X145.325 Y136.003 E7.10914
G1 X145.768 Y135.863 E7.12563
G1 X146.182 Y135.746 E7.1409
G1 X146.583 Y135.645 E7.15557
G1 X147.047 Y135.542 E7.17244
G1 X147.503 Y135.455 E7.18891
G1 X147.959 Y135.384 E7.20529
G1 X148.405 Y135.329 E7.22124
G1 X148.868 Y135.286 E7.23774
G1 X149.321 Y135.258 E7.25385
G1 X149.787 Y135.244 E7.27039
G1 X150.236 Y135.245 E7.28633
G1 X150.707 Y135.26 E7.30305
G1 X151.146 Y135.287 E7.31866
G1 X151.61 Y135.33 E7.3352
G1 X152.063 Y135.386 E7.3514
G1 X152.51 Y135.456 E7.36745
G1 X152.959 Y135.541 E7.38367
G1 X153.428 Y135.645 E7.40072
G1 X153.878 Y135.76 E7.4172
G1 X154.316 Y135.887 E7.43339
G1 X154.704 Y136.012 E7.44785
G1 X155.136 Y136.164 E7.46411
G1 X155.593 Y136.342 E7.48151
G1 X156.021 Y136.526 E7.49804
G1 X156.401 Y136.702 E7.51291
G1 X156.829 Y136.916 E7.52989
G1 X157.264 Y137.153 E7.54747
G1 X157.66 Y137.386 E7.56377
G1 X158.001 Y137.6 E7.57806
G1 X158.381 Y137.853 E7.59426
G1 X158.761 Y138.124 E7.61083
G1 X159.132 Y138.407 E7.62739
G1 X159.47 Y138.681 E7.64283
G1 X159.833 Y138.994 E7.65984
G1 X160.193 Y139.326 E7.67722
G1 X160.512 Y139.641 E7.69313
G1 X160.803 Y139.945 E7.70806
G1 X161.115 Y140.291 E7.72459
G1 X161.416 Y140.647 E7.74114
G1 X161.712 Y141.021 E7.75807
G1 X161.96 Y141.354 E7.7728
G1 X162.222 Y141.727 E7.78898
G1 X162.492 Y142.142 E7.80655
G1 X162.731 Y142.537 E7.82293
G1 X162.939 Y142.904 E7.8379
G1 X163.163 Y143.328 E7.85492
G1 X163.364 Y143.739 E7.87116
G1 X163.549 Y144.15 E7.88715
G1 X163.722 Y144.568 E7.90321
G1 X163.891 Y145.016 E7.9202
G1 X164.037 Y145.442 E7.93618
G1 X164.17 Y145.874 E7.95222
G1 X164.288 Y146.304 E7.96805
G1 X164.397 Y146.755 E7.98451
G1 X164.49 Y147.199 E8.00061
G1 X164.571 Y147.658 E8.01715
G1 X164.633 Y148.091 E8.03268
G1 X164.686 Y148.552 E8.04914
G1 X164.724 Y149.003 E8.06521
G1 X164.749 Y149.483 E8.08226
G1 X164.759 Y149.94 E8.09849
G1 X164.754 Y150.398 E8.11474
G1 X164.734 Y150.858 E8.13108
G1 X164.7 Y151.315 E8.14734
G1 X164.657 Y151.729 E8.16211
G1 X164.597 Y152.182 E8.17833
G1 X164.52 Y152.648 E8.19509
G1 X164.457 Y152.964 E8.20653
G1 X164.269 Y153.703 E8.23359
G1 X164.005 Y154.417 E8.26061
G1 X163.667 Y155.1 E8.28765
G1 X163.26 Y155.744 E8.31469
G1 X162.787 Y156.341 E8.34172
G1 X162.254 Y156.886 E8.36877
G1 X161.667 Y157.372 E8.39581
G1 X160.884 Y157.879 E8.42892
G1 X160.709 Y157.977 E8.43604
G1 X160.026 Y158.314 E8.46307
G1 X159.311 Y158.578 E8.49011
G1 X158.573 Y158.765 E8.51713
G1 X158.093 Y158.834 E8.53434
G1 X158.022 Y159.166 E8.54639
G1 X157.786 Y159.89 E8.57342
G1 X157.474 Y160.585 E8.60045
G1 X156.997 Y161.387 E8.63357
G1 X156.883 Y161.553 E8.64071
G1 X156.419 Y162.157 E8.66774
G1 X155.895 Y162.71 E8.69478
G1 X155.315 Y163.205 E8.72184
G1 X154.687 Y163.636 E8.74887
G1 X154.017 Y163.999 E8.77591
