;FLAVOR:Marlin
;TIME:3482
;Filament used: 6.66781m
;Layer height: 0.32
;MINX:101.707
;MINY:121.779
;MINZ:0.32
;MAXX:198.293
;MAXY:178.221
;MAXZ:20.04
;Generated with Cura_SteamEngine 4.9.1
M140 S90
M105
M190 S90
M104 S245
M105
M109 S245
M82 ;absolute extrusion mode
G28 ; home all axes
 M117 Purge extruder
 G92 E0 ; reset extruder
 G1 Z1.0 F3000 ; move z up little to prevent scratching of surface
 G1 X2 Y20 Z0.3 F5000.0 ; move to start-line position
 G1 X2 Y200.0 Z0.3 F1500.0 E15 ; draw 1st line
 G1 X2 Y200.0 Z0.4 F5000.0 ; move to side a little
 G1 X2 Y20 Z0.4 F1500.0 E30 ; draw 2nd line
 G92 E0 ; reset extruder
 G1 Z1.0 F3000 ; move z up little to prevent scratching of surface
G92 E0
G92 E0
G1 F1500 E-2
;LAYER_COUNT:62
;LAYER:0
M107
M205 X8 Y8
G1 F300 Z0.52
G0 F6000 X109.574 Y129.789 Z0.52
;TYPE:SKIRT
G1 F300 Z0.32
G1 F1500 E0
G1 F900 X110.131 Y129.353 E0.07471
G1 X110.668 Y128.994 E0.14293
G1 X112.239 Y128.032 E0.33748
G1 X112.809 Y127.713 E0.40647
G1 X113.436 Y127.422 E0.47947
G1 X115.151 Y126.711 E0.67555
G1 X115.814 Y126.469 E0.75009
G1 X116.438 Y126.293 E0.81857
G1 X118.232 Y125.863 E1.0134
G1 X119.031 Y125.712 E1.09928
G1 X119.563 Y125.654 E1.1558
G1 X121.436 Y125.507 E1.35423
G1 X122.09 Y125.481 E1.42335
G1 X149.393 Y125.481 E4.30693
G1 X150.024 Y124.769 E4.40741
G1 X150.065 Y124.729 E4.41346
G1 X150.8 Y124.091 E4.51625
G1 X151.175 Y123.802 E4.56625
G1 X152.179 Y123.138 E4.69338
G1 X152.227 Y123.111 E4.6992
G1 X153.117 Y122.677 E4.80377
G1 X153.55 Y122.497 E4.8533
G1 X154.521 Y122.162 E4.96178
G1 X154.575 Y122.147 E4.9677
G1 X155.75 Y121.91 E5.0943
G1 X156.226 Y121.849 E5.14498
G1 X156.721 Y121.8 E5.19751
G1 X157.317 Y121.779 E5.2605
G1 X168.495 Y121.779 E6.44105
G1 X169.119 Y121.802 E6.507
G1 X169.586 Y121.849 E6.55657
G1 X170.062 Y121.91 E6.60725
G1 X171.237 Y122.147 E6.73385
G1 X171.291 Y122.162 E6.73977
G1 X172.253 Y122.494 E6.84725
G1 X172.685 Y122.673 E6.89664
G1 X173.679 Y123.164 E7.01373
G1 X173.729 Y123.193 E7.01983
G1 X174.65 Y123.813 E7.13709
G1 X175.021 Y124.1 E7.18663
G1 X175.817 Y124.801 E7.29865
G1 X175.855 Y124.839 E7.30432
G1 X176.421 Y125.481 E7.39471
G1 X184.439 Y125.482 E8.24153
G1 X185.378 Y125.535 E8.34086
G1 X186.562 Y125.669 E8.4667
G1 X187.566 Y125.845 E8.57436
G1 X187.612 Y125.856 E8.57935
G1 X188.423 Y126.094 E8.66862
G1 X189.543 Y126.485 E8.7939
G1 X190.382 Y126.83 E8.88971
G1 X190.424 Y126.85 E8.89463
G1 X191.277 Y127.319 E8.99743
G1 X192.288 Y127.954 E9.12352
G1 X193.043 Y128.489 E9.22125
G1 X193.082 Y128.52 E9.22652
G1 X193.791 Y129.153 E9.3269
G1 X194.621 Y129.983 E9.45087
G1 X195.254 Y130.692 E9.55125
G1 X195.285 Y130.731 E9.55651
G1 X195.82 Y131.485 E9.65415
G1 X196.454 Y132.494 E9.78001
G1 X196.92 Y133.341 E9.88211
G1 X196.941 Y133.385 E9.88726
G1 X197.289 Y134.231 E9.98387
G1 X197.68 Y135.351 E10.10916
G1 X197.918 Y136.162 E10.19842
G1 X197.929 Y136.208 E10.20342
G1 X198.105 Y137.21 E10.31086
G1 X198.239 Y138.392 E10.4365
G1 X198.292 Y139.334 E10.53614
G1 X198.293 Y164.341 E13.17723
G1 X198.286 Y164.688 E13.21389
G1 X198.239 Y165.308 E13.27956
G1 X198.105 Y166.491 E13.4053
G1 X197.929 Y167.494 E13.51285
G1 X197.918 Y167.54 E13.51784
G1 X197.681 Y168.35 E13.60698
G1 X197.291 Y169.468 E13.73203
G1 X196.942 Y170.315 E13.82878
G1 X196.921 Y170.359 E13.83393
G1 X196.457 Y171.203 E13.93565
G1 X195.823 Y172.213 E14.0616
G1 X195.304 Y172.948 E14.15662
G1 X195.274 Y172.986 E14.16174
G1 X194.623 Y173.717 E14.26512
G1 X193.791 Y174.549 E14.38939
G1 X193.082 Y175.182 E14.48977
G1 X193.043 Y175.213 E14.49503
G1 X192.289 Y175.748 E14.59267
G1 X191.28 Y176.382 E14.71853
G1 X190.433 Y176.848 E14.82063
G1 X190.389 Y176.869 E14.82578
G1 X189.543 Y177.217 E14.92239
G1 X188.423 Y177.608 E15.04768
G1 X187.612 Y177.846 E15.13694
G1 X187.566 Y177.857 E15.14194
G1 X186.563 Y178.033 E15.24949
G1 X185.38 Y178.167 E15.37523
G1 X184.439 Y178.22 E15.47477
G1 X122.091 Y178.221 E22.05959
G1 X121.437 Y178.195 E22.12872
G1 X119.563 Y178.048 E22.32724
G1 X119.258 Y178.019 E22.3596
G1 X118.228 Y177.839 E22.47003
G1 X116.434 Y177.408 E22.66489
G1 X115.78 Y177.222 E22.73671
G1 X115.151 Y176.991 E22.80747
G1 X113.436 Y176.28 E23.00355
G1 X112.809 Y175.989 E23.07656
G1 X112.239 Y175.67 E23.14554
G1 X110.668 Y174.708 E23.3401
G1 X110.102 Y174.328 E23.4121
G1 X109.571 Y173.91 E23.48347
G1 X108.16 Y172.703 E23.67958
G1 X107.659 Y172.237 E23.75184
G1 X107.217 Y171.76 E23.82052
G1 X106.017 Y170.357 E24.0155
G1 X105.567 Y169.782 E24.09262
G1 X105.221 Y169.261 E24.15867
G1 X104.257 Y167.687 E24.35361
G1 X103.909 Y167.06 E24.42934
G1 X103.645 Y166.485 E24.49617
G1 X102.935 Y164.769 E24.6923
G1 X102.681 Y164.067 E24.77115
G1 X102.521 Y163.492 E24.83418
G1 X102.085 Y161.675 E25.03153
G1 X101.933 Y160.874 E25.11764
G1 X101.874 Y160.34 E25.17438
G1 X101.732 Y158.525 E25.36665
G1 X101.707 Y157.872 E25.43567
G1 X101.709 Y145.796 E26.71106
G1 X101.735 Y145.141 E26.78029
G1 X101.873 Y143.388 E26.96601
G1 X101.916 Y142.971 E27.01028
G1 X101.927 Y142.886 E27.01933
G1 X102.089 Y142.006 E27.11384
G1 X102.521 Y140.208 E27.30914
G1 X102.681 Y139.635 E27.37197
G1 X102.935 Y138.933 E27.45081
G1 X103.645 Y137.217 E27.64695
G1 X103.909 Y136.642 E27.71377
G1 X104.258 Y136.013 E27.78974
G1 X105.222 Y134.44 E27.98459
G1 X105.567 Y133.921 E28.05041
G1 X106.014 Y133.349 E28.12708
G1 X107.217 Y131.941 E28.32267
G1 X107.686 Y131.437 E28.39538
G1 X108.166 Y130.992 E28.46451
G1 X109.402 Y129.936 E28.6362
G0 F810 X109.574 Y129.789
G0 F6000 X110.146 Y130.458
G1 F900 X110.647 Y130.066 E28.70338
G1 X111.128 Y129.745 E28.76446
G1 X112.699 Y128.783 E28.95901
G1 X113.212 Y128.495 E29.02115
G1 X113.773 Y128.235 E29.08645
G1 X115.488 Y127.524 E29.28253
G1 X116.085 Y127.306 E29.34965
G1 X116.644 Y127.149 E29.41097
G1 X118.438 Y126.719 E29.60581
G1 X119.152 Y126.584 E29.68256
G1 X119.632 Y126.531 E29.73356
G1 X121.505 Y126.384 E29.93198
G1 X122.09 Y126.361 E29.99382
G1 X149.804 Y126.361 E32.9208
G1 X149.923 Y126.206 E32.94144
G1 X150.639 Y125.399 E33.05538
G1 X150.68 Y125.359 E33.06143
G1 X151.337 Y124.788 E33.15336
G1 X151.712 Y124.499 E33.20336
G1 X152.611 Y123.905 E33.31716
G1 X152.659 Y123.878 E33.32298
G1 X153.455 Y123.49 E33.4165
G1 X153.888 Y123.31 E33.46603
G1 X154.757 Y123.01 E33.56312
G1 X154.811 Y122.995 E33.56904
G1 X155.862 Y122.783 E33.68228
G1 X156.338 Y122.722 E33.73296
G1 X156.784 Y122.678 E33.78029
G1 X157.317 Y122.659 E33.83662
G1 X168.495 Y122.659 E35.01718
G1 X169.056 Y122.68 E35.07647
G1 X169.474 Y122.722 E35.12084
G1 X169.95 Y122.783 E35.17152
G1 X171.001 Y122.995 E35.28475
G1 X171.055 Y123.01 E35.29067
G1 X171.916 Y123.307 E35.38687
G1 X172.348 Y123.486 E35.43625
G1 X173.238 Y123.926 E35.54111
G1 X173.288 Y123.955 E35.54721
G1 X174.112 Y124.509 E35.65208
G1 X174.483 Y124.796 E35.70162
G1 X175.195 Y125.423 E35.80182
G1 X175.233 Y125.461 E35.80749
G1 X175.86 Y126.173 E35.90769
G1 X176.006 Y126.361 E35.93283
G1 X184.439 Y126.362 E36.82347
G1 X185.279 Y126.409 E36.91233
G1 X186.463 Y126.543 E37.03817
G1 X187.362 Y126.701 E37.13457
G1 X187.408 Y126.712 E37.13957
G1 X188.133 Y126.925 E37.21938
G1 X189.253 Y127.316 E37.34466
G1 X190.004 Y127.625 E37.43043
G1 X190.046 Y127.645 E37.43534
G1 X190.808 Y128.064 E37.52719
G1 X191.819 Y128.699 E37.65328
G1 X192.495 Y129.177 E37.74072
G1 X192.534 Y129.208 E37.74598
G1 X193.169 Y129.775 E37.83589
G1 X193.999 Y130.605 E37.95986
G1 X194.566 Y131.24 E38.04977
G1 X194.597 Y131.279 E38.05503
G1 X195.074 Y131.953 E38.14224
G1 X195.708 Y132.962 E38.26809
G1 X196.126 Y133.72 E38.35951
G1 X196.147 Y133.764 E38.36466
G1 X196.458 Y134.521 E38.45109
G1 X196.849 Y135.641 E38.57638
G1 X197.062 Y136.366 E38.65619
G1 X197.073 Y136.412 E38.66119
G1 X197.23 Y137.309 E38.75736
G1 X197.364 Y138.491 E38.883
G1 X197.412 Y139.334 E38.97217
G1 X197.413 Y164.341 E41.61326
G1 X197.406 Y164.654 E41.64633
G1 X197.364 Y165.209 E41.70511
G1 X197.23 Y166.392 E41.83085
G1 X197.073 Y167.29 E41.92713
G1 X197.062 Y167.336 E41.93213
G1 X196.85 Y168.06 E42.0118
G1 X196.46 Y169.178 E42.13686
G1 X196.148 Y169.936 E42.22343
G1 X196.127 Y169.98 E42.22858
G1 X195.711 Y170.735 E42.31962
G1 X195.077 Y171.745 E42.44556
G1 X194.613 Y172.403 E42.5306
G1 X194.583 Y172.441 E42.53571
G1 X194.001 Y173.095 E42.62817
G1 X193.169 Y173.927 E42.75244
G1 X192.534 Y174.494 E42.84235
G1 X192.495 Y174.525 E42.84761
G1 X191.821 Y175.002 E42.93482
G1 X190.812 Y175.636 E43.06067
G1 X190.054 Y176.054 E43.15209
G1 X190.01 Y176.075 E43.15724
G1 X189.253 Y176.386 E43.24368
G1 X188.133 Y176.777 E43.36897
G1 X187.408 Y176.99 E43.44877
G1 X187.362 Y177.001 E43.45377
G1 X186.464 Y177.158 E43.55005
G1 X185.281 Y177.292 E43.67579
G1 X184.439 Y177.34 E43.76486
G1 X122.091 Y177.341 E50.34968
G1 X121.506 Y177.318 E50.41151
G1 X119.632 Y177.171 E50.61004
G1 X119.355 Y177.144 E50.63943
G1 X118.434 Y176.983 E50.73818
G1 X116.64 Y176.552 E50.93304
G1 X116.051 Y176.385 E50.9977
G1 X115.488 Y176.178 E51.06105
G1 X113.773 Y175.467 E51.25713
G1 X113.212 Y175.207 E51.32243
G1 X112.699 Y174.919 E51.38457
G1 X111.128 Y173.957 E51.57912
G1 X110.618 Y173.615 E51.64397
G1 X110.143 Y173.241 E51.70783
G1 X108.732 Y172.034 E51.90393
G1 X108.281 Y171.615 E51.96895
G1 X107.886 Y171.188 E52.03038
G1 X106.686 Y169.785 E52.22536
G1 X106.283 Y169.271 E52.29435
G1 X105.971 Y168.802 E52.35384
G1 X105.007 Y167.228 E52.54877
G1 X104.696 Y166.666 E52.61661
G1 X104.458 Y166.149 E52.67672
G1 X103.748 Y164.433 E52.87286
G1 X103.52 Y163.804 E52.94352
G1 X103.376 Y163.286 E53.0003
G1 X102.94 Y161.469 E53.19765
G1 X102.805 Y160.753 E53.2746
G1 X102.752 Y160.271 E53.32581
G1 X102.61 Y158.456 E53.51809
G1 X102.587 Y157.872 E53.57981
G1 X102.589 Y145.796 E54.85521
G1 X102.612 Y145.21 E54.91715
G1 X102.75 Y143.457 E55.10286
G1 X102.789 Y143.084 E55.14247
G1 X102.8 Y142.999 E55.15152
G1 X102.945 Y142.212 E55.23604
G1 X103.377 Y140.414 E55.43134
G1 X103.52 Y139.898 E55.48789
G1 X103.748 Y139.269 E55.55855
G1 X104.458 Y137.553 E55.75468
G1 X104.696 Y137.036 E55.81479
G1 X105.008 Y136.473 E55.88277
G1 X105.972 Y134.9 E56.07762
G1 X106.283 Y134.432 E56.13696
G1 X106.683 Y133.921 E56.2055
G1 X107.886 Y132.513 E56.40109
G1 X108.308 Y132.059 E56.46655
G1 X108.738 Y131.661 E56.52844
G1 X109.974 Y130.605 E56.70013
G0 F810 X110.146 Y130.458
G0 F6000 X110.718 Y131.127
G1 F900 X111.163 Y130.778 E56.75986
G1 X111.587 Y130.495 E56.8137
G1 X113.158 Y129.533 E57.00825
G1 X113.615 Y129.278 E57.06352
G1 X114.11 Y129.048 E57.12117
G1 X115.825 Y128.337 E57.31725
G1 X116.355 Y128.143 E57.37686
G1 X116.849 Y128.005 E57.43103
G1 X118.643 Y127.575 E57.62586
G1 X119.273 Y127.456 E57.69358
G1 X119.701 Y127.408 E57.73906
G1 X121.574 Y127.261 E57.93749
G1 X122.09 Y127.241 E57.99202
G1 X150.253 Y127.241 E60.96643
G1 X150.341 Y127.108 E60.98327
G1 X150.622 Y126.741 E61.03209
G1 X151.253 Y126.029 E61.13257
G1 X151.294 Y125.989 E61.13862
G1 X151.874 Y125.485 E61.21977
G1 X152.249 Y125.196 E61.26977
G1 X153.042 Y124.672 E61.37016
G1 X153.09 Y124.645 E61.37597
G1 X153.793 Y124.303 E61.45854
G1 X154.226 Y124.123 E61.50807
G1 X154.993 Y123.858 E61.59377
G1 X155.047 Y123.843 E61.59969
G1 X155.974 Y123.656 E61.69957
G1 X156.45 Y123.595 E61.75025
G1 X156.847 Y123.556 E61.79238
G1 X157.317 Y123.539 E61.84205
G1 X168.495 Y123.539 E63.0226
G1 X168.993 Y123.558 E63.07524
G1 X169.362 Y123.595 E63.1144
G1 X169.838 Y123.656 E63.16509
G1 X170.765 Y123.843 E63.26496
G1 X170.819 Y123.858 E63.27088
G1 X171.579 Y124.12 E63.35579
G1 X172.011 Y124.299 E63.40517
G1 X172.796 Y124.687 E63.49765
G1 X172.846 Y124.716 E63.50376
G1 X173.573 Y125.205 E63.59629
G1 X173.944 Y125.492 E63.64583
G1 X174.573 Y126.045 E63.73429
G1 X174.611 Y126.083 E63.73996
G1 X175.164 Y126.712 E63.82842
G1 X175.451 Y127.083 E63.87795
G1 X175.558 Y127.241 E63.89811
G1 X184.438 Y127.242 E64.83596
G1 X185.18 Y127.284 E64.91445
G1 X186.364 Y127.418 E65.0403
G1 X187.157 Y127.557 E65.12532
G1 X187.203 Y127.568 E65.13032
G1 X187.843 Y127.756 E65.20077
G1 X188.963 Y128.147 E65.32606
G1 X189.626 Y128.419 E65.40174
G1 X189.668 Y128.439 E65.40666
G1 X190.34 Y128.809 E65.48768
G1 X191.351 Y129.444 E65.61377
G1 X191.948 Y129.866 E65.69098
G1 X191.987 Y129.897 E65.69624
G1 X192.547 Y130.397 E65.77553
G1 X193.377 Y131.227 E65.8995
G1 X193.877 Y131.787 E65.97879
G1 X193.908 Y131.826 E65.98405
G1 X194.329 Y132.422 E66.06111
G1 X194.963 Y133.431 E66.18697
G1 X195.331 Y134.099 E66.26752
G1 X195.352 Y134.143 E66.27267
G1 X195.627 Y134.811 E66.34896
G1 X196.018 Y135.931 E66.47425
G1 X196.206 Y136.571 E66.5447
G1 X196.217 Y136.617 E66.54969
G1 X196.356 Y137.409 E66.63462
G1 X196.49 Y138.591 E66.76025
G1 X196.532 Y139.334 E66.83885
G1 X196.533 Y164.341 E69.47994
G1 X196.527 Y164.621 E69.50952
G1 X196.49 Y165.11 E69.56131
G1 X196.356 Y166.293 E69.68705
G1 X196.217 Y167.085 E69.77197
G1 X196.206 Y167.131 E69.77697
G1 X196.019 Y167.77 E69.84729
G1 X195.629 Y168.888 E69.97234
G1 X195.353 Y169.557 E70.04877
G1 X195.332 Y169.601 E70.05392
G1 X194.966 Y170.267 E70.13418
G1 X194.332 Y171.277 E70.26013
G1 X193.922 Y171.858 E70.33523
G1 X193.892 Y171.896 E70.34034
G1 X193.379 Y172.473 E70.42189
G1 X192.547 Y173.305 E70.54615
G1 X191.987 Y173.805 E70.62544
G1 X191.948 Y173.836 E70.6307
G1 X191.352 Y174.257 E70.70777
G1 X190.343 Y174.891 E70.83362
G1 X189.675 Y175.259 E70.91417
G1 X189.631 Y175.28 E70.91932
G1 X188.963 Y175.555 E70.99562
G1 X187.843 Y175.946 E71.1209
G1 X187.203 Y176.134 E71.19135
G1 X187.157 Y176.145 E71.19635
G1 X186.365 Y176.284 E71.28127
G1 X185.182 Y176.418 E71.40701
G1 X184.439 Y176.46 E71.48561
G1 X122.091 Y176.461 E78.07043
G1 X121.575 Y176.441 E78.12497
G1 X119.701 Y176.294 E78.3235
G1 X119.452 Y176.27 E78.34992
G1 X118.639 Y176.127 E78.4371
G1 X116.845 Y175.696 E78.63196
G1 X116.321 Y175.548 E78.68947
G1 X115.825 Y175.365 E78.7453
G1 X114.11 Y174.654 E78.94138
G1 X113.615 Y174.424 E78.99903
G1 X113.158 Y174.169 E79.0543
G1 X111.587 Y173.207 E79.24885
G1 X111.134 Y172.903 E79.30647
G1 X110.715 Y172.572 E79.36287
G1 X109.304 Y171.365 E79.55897
G1 X108.903 Y170.993 E79.61674
G1 X108.554 Y170.616 E79.671
G1 X107.354 Y169.213 E79.86598
G1 X106.979 Y168.731 E79.93048
G1 X106.722 Y168.342 E79.97972
G1 X105.758 Y166.768 E80.17466
G1 X105.483 Y166.273 E80.23446
G1 X105.271 Y165.812 E80.28805
G1 X104.561 Y164.096 E80.48418
G1 X104.36 Y163.542 E80.54643
G1 X104.232 Y163.081 E80.59696
G1 X103.796 Y161.264 E80.7943
G1 X103.677 Y160.632 E80.86223
G1 X103.629 Y160.203 E80.90782
G1 X103.487 Y158.388 E81.10009
G1 X103.467 Y157.872 E81.15463
G1 X103.469 Y145.796 E82.43002
G1 X103.489 Y145.279 E82.48467
G1 X103.627 Y143.526 E82.67038
G1 X103.662 Y143.197 E82.70532
G1 X103.673 Y143.112 E82.71438
G1 X103.801 Y142.417 E82.78901
G1 X104.233 Y140.619 E82.98431
G1 X104.36 Y140.16 E83.03461
G1 X104.561 Y139.606 E83.09685
G1 X105.271 Y137.89 E83.29298
G1 X105.483 Y137.429 E83.34657
G1 X105.759 Y136.932 E83.40662
G1 X106.723 Y135.359 E83.60146
G1 X106.999 Y134.944 E83.6541
G1 X107.352 Y134.493 E83.71459
G1 X108.555 Y133.085 E83.91018
G1 X108.93 Y132.681 E83.96839
G1 X109.31 Y132.33 E84.02303
G1 X110.546 Y131.274 E84.19472
G0 F810 X110.718 Y131.127
G0 F6000 X111.289 Y131.796
G1 F900 X111.679 Y131.491 E84.24701
G1 X112.047 Y131.246 E84.2937
G1 X113.618 Y130.284 E84.48826
G1 X114.018 Y130.06 E84.53668
G1 X114.447 Y129.861 E84.58662
G1 X116.162 Y129.15 E84.7827
G1 X116.626 Y128.981 E84.83485
G1 X117.054 Y128.861 E84.8818
G1 X118.848 Y128.431 E85.07664
G1 X119.394 Y128.327 E85.13534
G1 X119.769 Y128.286 E85.17518
G1 X121.642 Y128.139 E85.3736
G1 X122.09 Y128.121 E85.42096
G1 X150.724 Y128.121 E88.44511
G1 X151.039 Y127.643 E88.50557
G1 X151.32 Y127.276 E88.55439
G1 X151.868 Y126.659 E88.64154
