;FLAVOR:Marlin
;TIME:1387
;Filament used: 2.70972m
;Layer height: 0.32
;MINX:93.769
;MINY:112.77
;MINZ:0.32
;MAXX:206.231
;MAXY:187.23
;MAXZ:3.4
;Generated with Cura_SteamEngine 4.9.1
M140 S90
M105
M190 S90
M104 S245
M105
M109 S245
M82 ;absolute extrusion mode
G28 ; home all axes
 M117 Purge extruder
 G92 E0 ; reset extruder
 G1 Z1.0 F3000 ; move z up little to prevent scratching of surface
 G1 X2 Y20 Z0.3 F5000.0 ; move to start-line position
 G1 X2 Y200.0 Z0.3 F1500.0 E15 ; draw 1st line
 G1 X2 Y200.0 Z0.4 F5000.0 ; move to side a little
 G1 X2 Y20 Z0.4 F1500.0 E30 ; draw 2nd line
 G92 E0 ; reset extruder
 G1 Z1.0 F3000 ; move z up little to prevent scratching of surface
G92 E0
G92 E0
G1 F1500 E-2
;LAYER_COUNT:10
;LAYER:0
M107
M205 X8 Y8
G1 F300 Z0.52
G0 F6000 X104.044 Y119.135 Z0.52
;TYPE:SKIRT
G1 F300 Z0.32
G1 F1500 E0
G1 F900 X104.964 Y118.384 E0.12672
G1 X106.053 Y117.594 E0.27028
G1 X106.436 Y117.334 E0.31967
G1 X107.544 Y116.63 E0.45974
G1 X108.746 Y115.968 E0.60616
G1 X110.174 Y115.3 E0.77438
G1 X110.521 Y115.153 E0.81459
G1 X112.312 Y114.486 E1.01852
G1 X113.572 Y114.12 E1.15852
G1 X113.847 Y114.049 E1.18883
G1 X115.413 Y113.706 E1.35989
G1 X117.13 Y113.464 E1.54491
G1 X117.511 Y113.426 E1.58576
G1 X118.821 Y113.336 E1.72587
G1 X119.415 Y113.324 E1.78927
G1 X120.468 Y113.104 E1.90405
G1 X121.767 Y112.913 E2.04415
G1 X123.076 Y112.802 E2.18432
G1 X124.248 Y112.77 E2.30943
G1 X175.752 Y112.77 E7.80504
G1 X177.065 Y112.81 E7.94521
G1 X178.372 Y112.93 E8.08526
G1 X179.67 Y113.129 E8.22538
G1 X180.586 Y113.327 E8.32537
G1 X181.729 Y113.363 E8.44739
G1 X182.692 Y113.444 E8.55051
G1 X183.001 Y113.477 E8.58367
G1 X184.285 Y113.653 E8.72196
G1 X185.86 Y113.977 E8.89353
G1 X186.265 Y114.076 E8.93802
G1 X187.531 Y114.426 E9.07817
G1 X188.773 Y114.853 E9.21831
G1 X189.986 Y115.355 E9.35839
G1 X190.748 Y115.715 E9.44831
G1 X190.937 Y115.823 E9.47154
G1 X192.203 Y116.488 E9.62413
G1 X192.482 Y116.65 E9.65855
G1 X193.79 Y117.474 E9.82351
G1 X195.228 Y118.539 E10.01444
G1 X195.472 Y118.736 E10.04791
G1 X196.468 Y119.592 E10.18804
G1 X197.756 Y120.872 E10.3818
G1 X198.039 Y121.178 E10.42627
G1 X198.947 Y122.225 E10.57415
G1 X199.745 Y123.268 E10.71428
G1 X200.371 Y124.188 E10.83301
G1 X200.567 Y124.493 E10.8717
G1 X201.168 Y125.487 E10.99564
G1 X201.785 Y126.647 E11.13584
G1 X202.322 Y127.823 E11.27378
G1 X202.468 Y128.17 E11.31395
G1 X203.059 Y129.743 E11.49325
G1 X203.482 Y131.176 E11.65268
G1 X203.51 Y131.285 E11.66469
G1 X203.786 Y131.776 E11.72479
G1 X204.357 Y132.959 E11.86495
G1 X204.856 Y134.174 E12.0051
G1 X205.279 Y135.416 E12.1451
G1 X205.627 Y136.683 E12.2853
G1 X205.896 Y137.968 E12.42539
G1 X206.087 Y139.267 E12.56548
G1 X206.198 Y140.576 E12.70566
G1 X206.23 Y141.747 E12.83065
G1 X206.231 Y158.251 E14.59168
G1 X206.191 Y159.563 E14.73174
G1 X206.071 Y160.871 E14.87189
G1 X205.872 Y162.169 E15.01201
G1 X205.594 Y163.452 E15.15208
G1 X205.239 Y164.717 E15.29228
G1 X204.807 Y165.957 E15.43239
G1 X204.301 Y167.168 E15.57243
G1 X203.722 Y168.347 E15.71259
G1 X203.508 Y168.722 E15.75866
G1 X203.174 Y169.931 E15.89249
G1 X202.747 Y171.173 E16.03263
G1 X202.245 Y172.386 E16.17271
G1 X201.885 Y173.148 E16.26263
G1 X201.779 Y173.336 E16.28566
G1 X201.112 Y174.603 E16.43844
G1 X200.95 Y174.882 E16.47287
G1 X200.126 Y176.19 E16.63782
G1 X199.061 Y177.628 E16.82876
G1 X198.864 Y177.872 E16.86222
G1 X198.008 Y178.868 E17.00235
G1 X196.728 Y180.156 E17.19611
G1 X196.422 Y180.439 E17.24058
G1 X195.375 Y181.347 E17.38846
G1 X194.332 Y182.145 E17.52859
G1 X193.412 Y182.771 E17.64733
G1 X193.107 Y182.967 E17.68601
G1 X192.113 Y183.568 E17.80995
G1 X190.953 Y184.185 E17.95015
G1 X189.777 Y184.722 E18.0881
G1 X189.43 Y184.868 E18.12826
G1 X187.657 Y185.524 E18.32998
G1 X186.428 Y185.88 E18.46651
G1 X186.153 Y185.951 E18.49682
G1 X184.587 Y186.294 E18.66787
G1 X182.87 Y186.536 E18.85289
G1 X182.489 Y186.574 E18.89375
G1 X181.179 Y186.664 E19.03386
G1 X180.585 Y186.676 E19.09725
G1 X179.532 Y186.896 E19.21204
G1 X178.233 Y187.087 E19.35214
G1 X176.924 Y187.198 E19.49231
G1 X175.752 Y187.23 E19.61741
G1 X124.248 Y187.23 E25.11303
G1 X122.935 Y187.19 E25.2532
G1 X121.628 Y187.07 E25.39325
G1 X120.33 Y186.871 E25.53336
G1 X119.414 Y186.673 E25.63336
G1 X118.271 Y186.637 E25.75538
G1 X117.308 Y186.556 E25.8585
G1 X116.999 Y186.523 E25.89166
G1 X115.715 Y186.347 E26.02995
G1 X114.14 Y186.023 E26.20152
G1 X113.735 Y185.924 E26.24601
G1 X112.469 Y185.574 E26.38616
G1 X111.227 Y185.147 E26.5263
G1 X110.014 Y184.645 E26.66638
G1 X109.252 Y184.285 E26.7563
G1 X109.063 Y184.177 E26.77953
G1 X107.797 Y183.512 E26.93212
G1 X107.518 Y183.35 E26.96654
G1 X106.21 Y182.526 E27.13149
G1 X104.772 Y181.461 E27.32243
G1 X104.528 Y181.264 E27.35589
G1 X103.532 Y180.408 E27.49603
G1 X102.244 Y179.128 E27.68978
G1 X101.961 Y178.822 E27.73426
G1 X100.929 Y177.621 E27.90322
G1 X100.141 Y176.572 E28.04321
G1 X99.627 Y175.809 E28.14138
G1 X99.431 Y175.504 E28.18006
G1 X98.729 Y174.331 E28.32593
G1 X98.124 Y173.166 E28.466
G1 X97.669 Y172.155 E28.5843
G1 X97.523 Y171.807 E28.62457
G1 X96.869 Y170.036 E28.82601
G1 X96.523 Y168.841 E28.95876
G1 X96.45 Y168.559 E28.98984
G1 X96.084 Y166.869 E29.17435
G1 X95.967 Y166.015 E29.26632
G1 X95.514 Y164.775 E29.40719
G1 X95.14 Y163.516 E29.54733
G1 X94.843 Y162.237 E29.68743
G1 X94.625 Y160.942 E29.82756
G1 X94.486 Y159.636 E29.9677
G1 X94.426 Y158.324 E30.10784
G1 X94.447 Y157.011 E30.24796
G1 X94.547 Y155.702 E30.38804
G1 X94.728 Y154.401 E30.52819
G1 X94.986 Y153.114 E30.66825
G1 X95.131 Y152.569 E30.72843
G1 X95.022 Y152.292 E30.76019
G1 X94.619 Y151.042 E30.90033
G1 X94.293 Y149.77 E31.04044
G1 X94.045 Y148.481 E31.1805
G1 X93.875 Y147.178 E31.32072
G1 X93.785 Y145.868 E31.46083
G1 X93.77 Y145.058 E31.54727
G1 X93.769 Y141.755 E31.89971
G1 X93.809 Y140.442 E32.03988
G1 X93.928 Y139.134 E32.18002
G1 X94.127 Y137.836 E32.32014
G1 X94.404 Y136.553 E32.46019
G1 X94.759 Y135.288 E32.60039
G1 X95.191 Y134.048 E32.7405
G1 X95.697 Y132.836 E32.88064
G1 X96.276 Y131.658 E33.0207
G1 X96.491 Y131.279 E33.06719
G1 X96.826 Y130.069 E33.20116
G1 X97.253 Y128.827 E33.3413
G1 X97.755 Y127.614 E33.48137
G1 X98.115 Y126.852 E33.5713
G1 X98.221 Y126.664 E33.59433
G1 X98.867 Y125.434 E33.74257
G1 X99.03 Y125.152 E33.77733
G1 X99.721 Y124.035 E33.91748
G1 X100.479 Y122.963 E34.05757
G1 X100.904 Y122.419 E34.13123
G1 X101.119 Y122.152 E34.16781
G1 X101.436 Y121.767 E34.22102
G1 X102.312 Y120.789 E34.36112
G1 X102.872 Y120.222 E34.44615
G1 X103.076 Y120.023 E34.47656
G1 X103.877 Y119.288 E34.59256
G0 F810 X104.044 Y119.135
G0 F6000 X104.639 Y119.784
G1 F900 X105.502 Y119.08 E34.7114
G1 X106.547 Y118.322 E34.84914
G1 X106.93 Y118.062 E34.89854
G1 X108.016 Y117.373 E35.03577
G1 X109.147 Y116.751 E35.1735
G1 X110.517 Y116.11 E35.33489
G1 X110.864 Y115.963 E35.3751
G1 X112.613 Y115.314 E35.57416
G1 X113.792 Y114.972 E35.70515
G1 X114.067 Y114.901 E35.73545
G1 X115.571 Y114.572 E35.89973
G1 X117.218 Y114.34 E36.0772
G1 X117.599 Y114.302 E36.11806
G1 X118.882 Y114.214 E36.25528
G1 X119.514 Y114.202 E36.32273
G1 X119.622 Y114.174 E36.33463
G1 X120.884 Y113.925 E36.47189
G1 X122.159 Y113.756 E36.60912
G1 X123.442 Y113.666 E36.74636
G1 X124.248 Y113.65 E36.83238
G1 X175.752 Y113.65 E42.328
G1 X177.037 Y113.69 E42.46518
G1 X178.318 Y113.81 E42.60246
G1 X179.589 Y114.009 E42.73974
G1 X180.468 Y114.204 E42.83581
G1 X181.702 Y114.243 E42.96754
G1 X182.598 Y114.319 E43.06349
G1 X182.907 Y114.352 E43.09665
G1 X184.141 Y114.521 E43.22955
G1 X185.652 Y114.831 E43.39414
G1 X186.057 Y114.93 E43.43863
G1 X187.296 Y115.275 E43.57586
G1 X188.511 Y115.695 E43.71303
G1 X189.698 Y116.19 E43.85026
G1 X190.356 Y116.503 E43.92801
G1 X190.546 Y116.611 E43.95133
G1 X191.761 Y117.249 E44.09776
G1 X192.04 Y117.411 E44.13218
G1 X193.296 Y118.202 E44.29056
G1 X194.675 Y119.224 E44.47371
G1 X194.919 Y119.421 E44.50717
G1 X195.894 Y120.259 E44.64436
G1 X197.11 Y121.47 E44.82747
G1 X197.393 Y121.776 E44.87195
G1 X198.265 Y122.781 E45.01392
G1 X199.046 Y123.803 E45.15117
G1 X199.63 Y124.664 E45.26218
G1 X199.826 Y124.969 E45.30087
G1 X200.404 Y125.924 E45.41998
G1 X201.007 Y127.06 E45.55721
G1 X201.51 Y128.164 E45.68666
G1 X201.656 Y128.511 E45.72683
G1 X202.224 Y130.021 E45.89897
G1 X202.63 Y131.396 E46.05195
G1 X202.687 Y131.616 E46.0762
G1 X203.066 Y132.301 E46.15973
G1 X203.618 Y133.463 E46.297
G1 X204.096 Y134.657 E46.43423
G1 X204.499 Y135.878 E46.57143
G1 X204.826 Y137.122 E46.70868
G1 X205.075 Y138.384 E46.84593
G1 X205.244 Y139.659 E46.98317
G1 X205.334 Y140.942 E47.12041
G1 X205.35 Y141.747 E47.20632
G1 X205.351 Y158.251 E48.96734
G1 X205.311 Y159.536 E49.10452
G1 X205.191 Y160.817 E49.24181
G1 X204.992 Y162.087 E49.37897
G1 X204.715 Y163.343 E49.51621
G1 X204.359 Y164.579 E49.65346
G1 X203.928 Y165.791 E49.79071
G1 X203.422 Y166.973 E49.92791
G1 X202.844 Y168.122 E50.06515
G1 X202.686 Y168.393 E50.09862
G1 X202.67 Y168.457 E50.10566
G1 X202.325 Y169.696 E50.24289
G1 X201.905 Y170.911 E50.38006
G1 X201.41 Y172.098 E50.51729
G1 X201.097 Y172.756 E50.59504
G1 X200.991 Y172.944 E50.61807
G1 X200.351 Y174.161 E50.76479
G1 X200.189 Y174.44 E50.79921
G1 X199.398 Y175.696 E50.9576
G1 X198.376 Y177.075 E51.14074
G1 X198.179 Y177.319 E51.17421
G1 X197.341 Y178.294 E51.31139
G1 X196.13 Y179.51 E51.4945
G1 X195.824 Y179.793 E51.53898
G1 X194.819 Y180.665 E51.68095
G1 X193.797 Y181.446 E51.8182
G1 X192.936 Y182.03 E51.92921
G1 X192.631 Y182.226 E51.9679
G1 X191.676 Y182.804 E52.08701
G1 X190.54 Y183.407 E52.22424
G1 X189.436 Y183.91 E52.35369
G1 X189.089 Y184.056 E52.39386
G1 X187.387 Y184.686 E52.58751
G1 X186.208 Y185.028 E52.7185
G1 X185.933 Y185.099 E52.7488
G1 X184.429 Y185.428 E52.91308
G1 X182.782 Y185.66 E53.09055
G1 X182.401 Y185.698 E53.13141
G1 X181.118 Y185.786 E53.26863
G1 X180.486 Y185.798 E53.33608
G1 X180.378 Y185.826 E53.34798
G1 X179.116 Y186.075 E53.48524
G1 X177.841 Y186.244 E53.62248
G1 X176.558 Y186.334 E53.75971
G1 X175.752 Y186.35 E53.84573
G1 X124.248 Y186.35 E59.34135
G1 X122.963 Y186.31 E59.47853
G1 X121.682 Y186.19 E59.61581
G1 X120.411 Y185.991 E59.75309
G1 X119.532 Y185.796 E59.84916
G1 X118.298 Y185.757 E59.9809
G1 X117.402 Y185.681 E60.07684
G1 X117.093 Y185.648 E60.11
G1 X115.859 Y185.479 E60.2429
G1 X114.348 Y185.169 E60.40749
G1 X113.943 Y185.07 E60.45198
G1 X112.704 Y184.725 E60.58921
G1 X111.489 Y184.305 E60.72638
G1 X110.302 Y183.81 E60.86361
G1 X109.644 Y183.497 E60.94136
G1 X109.454 Y183.389 E60.96468
G1 X108.239 Y182.751 E61.11111
G1 X107.96 Y182.589 E61.14553
G1 X106.704 Y181.798 E61.30392
G1 X105.325 Y180.776 E61.48706
G1 X105.081 Y180.579 E61.52053
G1 X104.106 Y179.741 E61.65771
G1 X102.89 Y178.53 E61.84082
G1 X102.607 Y178.224 E61.8853
G1 X101.617 Y177.072 E62.04737
G1 X100.845 Y176.043 E62.18464
G1 X100.368 Y175.333 E62.27591
G1 X100.172 Y175.028 E62.31459
G1 X99.498 Y173.902 E62.45462
G1 X98.905 Y172.761 E62.59183
G1 X98.48 Y171.815 E62.70249
G1 X98.334 Y171.467 E62.74275
G1 X97.707 Y169.766 E62.93619
G1 X97.375 Y168.621 E63.0634
G1 X97.302 Y168.339 E63.09448
G1 X96.951 Y166.716 E63.27166
G1 X96.822 Y165.774 E63.37312
G1 X96.771 Y165.657 E63.38674
G1 X96.333 Y164.448 E63.52394
G1 X95.971 Y163.214 E63.66116
G1 X95.686 Y161.96 E63.79838
G1 X95.479 Y160.691 E63.93558
G1 X95.352 Y159.411 E64.07283
G1 X95.304 Y158.126 E64.21004
G1 X95.337 Y156.84 E64.3473
G1 X95.449 Y155.559 E64.48451
G1 X95.641 Y154.287 E64.62177
G1 X95.912 Y153.03 E64.75898
G1 X96.056 Y152.518 E64.81573
G1 X95.842 Y151.971 E64.8784
G1 X95.45 Y150.747 E65.01554
G1 X95.134 Y149.5 E65.15281
G1 X94.897 Y148.236 E65.29003
G1 X94.738 Y146.96 E65.42723
G1 X94.65 Y145.057 E65.63051
G1 X94.649 Y141.754 E65.98295
G1 X94.689 Y140.469 E66.12013
G1 X94.808 Y139.188 E66.2574
G1 X95.007 Y137.918 E66.39457
G1 X95.284 Y136.662 E66.53181
G1 X95.639 Y135.426 E66.66902
G1 X96.07 Y134.214 E66.80628
G1 X96.576 Y133.031 E66.94357
G1 X97.154 Y131.883 E67.08072
G1 X97.314 Y131.609 E67.11457
G1 X97.33 Y131.543 E67.12182
G1 X97.675 Y130.304 E67.25905
G1 X98.095 Y129.089 E67.39622
G1 X98.59 Y127.902 E67.53345
G1 X98.903 Y127.244 E67.6112
G1 X99.009 Y127.056 E67.63423
G1 X99.629 Y125.874 E67.77665
G1 X99.792 Y125.592 E67.81141
G1 X100.47 Y124.499 E67.94865
G1 X101.589 Y122.971 E68.15073
G1 X101.804 Y122.704 E68.18731
G1 X102.109 Y122.334 E68.23848
G1 X102.967 Y121.377 E68.37562
G1 X103.487 Y120.852 E68.45447
G1 X103.691 Y120.653 E68.48488
G1 X104.472 Y119.937 E68.59793
G0 F810 X104.639 Y119.784
G0 F6000 X105.233 Y120.433
G1 F900 X106.041 Y119.776 E68.70905
G1 X107.041 Y119.05 E68.84091
G1 X107.424 Y118.79 E68.89031
G1 X108.487 Y118.117 E69.02455
G1 X109.549 Y117.534 E69.15382
G1 X110.861 Y116.92 E69.30839
G1 X111.208 Y116.773 E69.3486
G1 X112.852 Y116.161 E69.53578
G1 X114.012 Y115.824 E69.66467
G1 X114.287 Y115.753 E69.69498
G1 X115.728 Y115.437 E69.85239
G1 X117.305 Y115.216 E70.0223
G1 X117.686 Y115.178 E70.06316
G1 X118.941 Y115.093 E70.19738
G1 X119.653 Y115.08 E70.27336
G1 X120.057 Y114.979 E70.3178
G1 X121.294 Y114.752 E70.45199
G1 X122.544 Y114.603 E70.58632
G1 X124.248 Y114.53 E70.76831
G1 X175.752 Y114.53 E76.26392
G1 X177.01 Y114.57 E76.39822
G1 X178.262 Y114.69 E76.53243
G1 X179.505 Y114.889 E76.66675
G1 X180.357 Y115.082 E76.75996
G1 X180.416 Y115.082 E76.76626
G1 X181.673 Y115.123 E76.90046
G1 X182.505 Y115.194 E76.98955
G1 X182.814 Y115.227 E77.02271
G1 X183.996 Y115.389 E77.15002
G1 X185.443 Y115.686 E77.30763
G1 X185.848 Y115.785 E77.35212
G1 X187.06 Y116.123 E77.48638
G1 X188.248 Y116.537 E77.62062
G1 X189.794 Y117.216 E77.80079
G1 X190.159 Y117.388 E77.84384
G1 X190.154 Y117.398 E77.84504
G1 X191.319 Y118.01 E77.98545
G1 X191.598 Y118.172 E78.01988
G1 X192.802 Y118.93 E78.17169
G1 X194.122 Y119.908 E78.34698
G1 X194.366 Y120.105 E78.38044
G1 X195.32 Y120.927 E78.51481
G1 X196.464 Y122.067 E78.68714
G1 X196.747 Y122.373 E78.73162
G1 X197.583 Y123.337 E78.86777
G1 X198.346 Y124.337 E79.00199
G1 X198.89 Y125.14 E79.10548
G1 X199.086 Y125.445 E79.14416
G1 X199.64 Y126.36 E79.2583
G1 X200.23 Y127.472 E79.39262
G1 X200.699 Y128.505 E79.51367
G1 X200.845 Y128.852 E79.55384
G1 X201.389 Y130.3 E79.71889
G1 X201.777 Y131.615 E79.86518
G1 X201.857 Y131.93 E79.89986
G1 X202.345 Y132.824 E80.00854
G1 X202.876 Y133.965 E80.14283
G1 X203.334 Y135.137 E80.27709
G1 X203.716 Y136.336 E80.41137
G1 X204.021 Y137.557 E80.54565
G1 X204.248 Y138.794 E80.67985
G1 X204.397 Y140.044 E80.81417
G1 X204.47 Y141.747 E80.99605
G1 X204.471 Y158.251 E82.75708
G1 X204.431 Y159.509 E82.89138
G1 X204.311 Y160.761 E83.02558
G1 X204.112 Y162.004 E83.1599
G1 X203.835 Y163.231 E83.29412
G1 X203.48 Y164.439 E83.42847
G1 X203.049 Y165.621 E83.56271
G1 X202.543 Y166.773 E83.69697
G1 X201.966 Y167.892 E83.83131
G1 X201.858 Y168.072 E83.85371
G1 X201.815 Y168.248 E83.87304
G1 X201.477 Y169.46 E84.0073
G1 X201.063 Y170.648 E84.14154
G1 X200.375 Y172.213 E84.32395
G1 X200.213 Y172.557 E84.36452
G1 X200.204 Y172.552 E84.36562
G1 X199.59 Y173.719 E84.50633
G1 X199.428 Y173.998 E84.54075
G1 X198.67 Y175.202 E84.69256
G1 X197.692 Y176.522 E84.86786
G1 X197.495 Y176.766 E84.90132
G1 X196.673 Y177.72 E85.03569
G1 X195.533 Y178.864 E85.20802
G1 X195.227 Y179.147 E85.25249
G1 X194.263 Y179.983 E85.38864
G1 X193.263 Y180.746 E85.52286
G1 X192.46 Y181.29 E85.62635
G1 X192.155 Y181.486 E85.66504
G1 X191.24 Y182.04 E85.77917
G1 X190.128 Y182.63 E85.91349
G1 X189.095 Y183.099 E86.03454
G1 X188.748 Y183.245 E86.07471
G1 X187.117 Y183.849 E86.2603
G1 X185.988 Y184.176 E86.38571
G1 X185.713 Y184.247 E86.41602
G1 X184.272 Y184.563 E86.57343
G1 X182.695 Y184.784 E86.74335
G1 X182.314 Y184.822 E86.7842
