;FLAVOR:Marlin
;TIME:439
;Filament used: 0.667681m
;Layer height: 0.32
;MINX:120.801
;MINY:114.066
;MINZ:0.32
;MAXX:181.386
;MAXY:202.447
;MAXZ:7.5
;Generated with Cura_SteamEngine 4.9.1
M140 S90
M105
M190 S90
M104 S245
M105
M109 S245
M82 ;absolute extrusion mode
G28 ; home all axes
 M117 Purge extruder
 G92 E0 ; reset extruder
 G1 Z1.0 F3000 ; move z up little to prevent scratching of surface
 G1 X2 Y20 Z0.3 F5000.0 ; move to start-line position
 G1 X2 Y200.0 Z0.3 F1500.0 E15 ; draw 1st line
 G1 X2 Y200.0 Z0.4 F5000.0 ; move to side a little
 G1 X2 Y20 Z0.4 F1500.0 E30 ; draw 2nd line
 G92 E0 ; reset extruder
 G1 Z1.0 F3000 ; move z up little to prevent scratching of surface
G92 E0
G92 E0
G1 F1500 E-2
;LAYER_COUNT:7
;LAYER:0
M107
M205 X8 Y8
G1 F300 Z0.52
G0 F6000 X123.417 Y183.36 Z0.52
;TYPE:SKIRT
G1 F300 Z0.32
G1 F1500 E0
G1 F900 X123.92 Y183.107 E0.05916
G1 X124.524 Y182.91 E0.12591
G1 X125.173 Y182.755 E0.19602
G1 X125.728 Y182.664 E0.25511
G1 X126.29 Y182.652 E0.31417
G1 X126.849 Y182.72 E0.37334
G1 X127.392 Y182.866 E0.43242
G1 X127.909 Y183.088 E0.49154
G1 X128.389 Y183.381 E0.55062
G1 X128.823 Y183.739 E0.60974
G1 X129.202 Y184.154 E0.66879
G1 X129.553 Y184.682 E0.7354
G1 X130.925 Y187.148 E1.03191
G1 X131.163 Y187.657 E1.09095
G1 X131.327 Y188.196 E1.15014
G1 X131.412 Y188.752 E1.20924
G1 X131.418 Y189.314 E1.26829
G1 X131.344 Y189.872 E1.32743
G1 X131.191 Y190.413 E1.38651
G1 X130.97 Y190.914 E1.44404
G1 X130.97 Y191.02 E1.45518
G1 X142.479 Y188.249 E2.69898
G1 X142.762 Y187.807 E2.75412
G1 X143.129 Y187.38 E2.81328
G1 X143.553 Y187.01 E2.87241
G1 X143.921 Y186.764 E2.91892
G1 X144.127 Y186.642 E2.94407
G1 X144.63 Y186.39 E3.00318
G1 X145.164 Y186.212 E3.06233
G1 X145.717 Y186.112 E3.12137
G1 X146.145 Y186.089 E3.16641
G1 X147.812 Y186.089 E3.34156
G1 X148.373 Y186.129 E3.40065
G1 X148.923 Y186.248 E3.45978
G1 X149.45 Y186.444 E3.51885
G1 X149.944 Y186.712 E3.5779
G1 X150.003 Y186.756 E3.58564
G1 X150.138 Y186.661 E3.60298
G1 X150.638 Y186.405 E3.662
G1 X151.17 Y186.222 E3.72111
G1 X151.723 Y186.116 E3.78028
G1 X152.188 Y186.089 E3.82921
G1 X153.855 Y186.089 E4.00437
G1 X154.416 Y186.129 E4.06346
G1 X154.966 Y186.248 E4.12258
G1 X155.493 Y186.444 E4.18166
G1 X155.873 Y186.642 E4.22668
G1 X156.079 Y186.764 E4.25184
G1 X156.541 Y187.084 E4.31089
G1 X156.954 Y187.467 E4.37007
G1 X157.308 Y187.904 E4.42916
G1 X157.521 Y188.249 E4.47176
G1 X169.03 Y191.02 E5.71556
G1 X169.03 Y190.912 E5.72691
G1 X168.814 Y190.428 E5.7826
G1 X168.659 Y189.887 E5.84173
G1 X168.583 Y189.329 E5.9009
G1 X168.587 Y188.767 E5.95995
G1 X168.67 Y188.211 E6.01901
G1 X168.831 Y187.672 E6.07812
G1 X169.075 Y187.148 E6.13885
G1 X170.447 Y184.682 E6.43535
G1 X170.754 Y184.211 E6.49443
G1 X171.126 Y183.788 E6.55361
G1 X171.553 Y183.423 E6.61264
G1 X172.028 Y183.121 E6.67178
G1 X172.541 Y182.89 E6.73089
G1 X173.081 Y182.734 E6.78995
G1 X173.638 Y182.656 E6.84904
G1 X174.201 Y182.658 E6.9082
G1 X174.827 Y182.755 E6.97476
G1 X175.476 Y182.91 E7.04486
G1 X176.012 Y183.08 E7.10394
G1 X176.519 Y183.323 E7.16302
G1 X176.987 Y183.636 E7.22217
G1 X177.405 Y184.012 E7.28125
G1 X177.766 Y184.443 E7.34032
G1 X178.062 Y184.922 E7.39948
G1 X178.288 Y185.437 E7.45857
G1 X178.438 Y185.979 E7.51766
G1 X178.513 Y186.61 E7.58443
G1 X178.953 Y198.058 E8.78815
G1 X178.935 Y198.62 E8.84723
G1 X178.837 Y199.174 E8.90634
G1 X178.662 Y199.708 E8.96539
G1 X178.412 Y200.213 E9.02459
G1 X178.094 Y200.677 E9.08369
G1 X177.511 Y201.268 E9.17092
G1 X177.173 Y201.546 E9.2169
G1 X176.715 Y201.872 E9.27597
G1 X176.215 Y202.129 E9.33504
G1 X175.683 Y202.313 E9.39418
G1 X175.131 Y202.42 E9.45326
G1 X174.569 Y202.447 E9.51238
G1 X174.009 Y202.394 E9.57148
G1 X173.732 Y202.338 E9.60117
G1 X155.929 Y198.056 E11.52507
G1 X155.376 Y198.577 E11.6049
G1 X154.989 Y198.899 E11.6578
G1 X154.945 Y198.931 E11.66351
G1 X154.499 Y199.211 E11.71884
G1 X153.515 Y199.743 E11.83638
G1 X153.054 Y199.956 E11.88973
G1 X153.002 Y199.976 E11.89559
G1 X152.499 Y200.132 E11.95092
G1 X151.413 Y200.391 E12.06823
G1 X150.901 Y200.478 E12.12279
G1 X150.843 Y200.484 E12.12892
G1 X150.327 Y200.504 E12.18318
G1 X150 Y200.495 E12.21755
G1 X149.673 Y200.504 E12.25192
G1 X149.157 Y200.484 E12.30617
G1 X149.099 Y200.478 E12.3123
G1 X148.587 Y200.391 E12.36687
G1 X147.501 Y200.132 E12.48417
G1 X146.998 Y199.976 E12.53951
G1 X146.946 Y199.956 E12.54536
G1 X146.485 Y199.743 E12.59872
G1 X145.501 Y199.211 E12.71625
G1 X145.055 Y198.931 E12.77158
G1 X145.011 Y198.899 E12.7773
G1 X144.624 Y198.577 E12.83019
G1 X144.071 Y198.056 E12.91002
G1 X126.268 Y202.338 E14.83392
G1 X125.713 Y202.431 E14.89305
G1 X125.151 Y202.443 E14.95211
G1 X124.592 Y202.376 E15.01126
G1 X124.049 Y202.231 E15.07032
G1 X123.532 Y202.01 E15.12939
G1 X123.051 Y201.718 E15.18851
G1 X122.827 Y201.546 E15.21819
G1 X122.489 Y201.268 E15.26417
G1 X122.081 Y200.881 E15.32326
G1 X121.732 Y200.44 E15.38235
G1 X121.449 Y199.954 E15.44144
G1 X121.237 Y199.433 E15.50054
G1 X121.102 Y198.887 E15.55963
G1 X121.047 Y198.058 E15.64692
G1 X121.487 Y186.61 E16.85065
G1 X121.548 Y186.051 E16.90973
G1 X121.688 Y185.506 E16.96885
G1 X121.904 Y184.987 E17.02792
G1 X122.192 Y184.503 E17.08709
G1 X122.544 Y184.065 E17.14614
G1 X122.956 Y183.681 E17.20531
G1 X123.231 Y183.489 E17.24055
G0 F810 X123.417 Y183.36
G0 F6000 X123.795 Y184.161
G1 F900 X124.233 Y183.93 E17.29258
G1 X124.729 Y183.766 E17.34747
G1 X125.378 Y183.611 E17.41758
G1 X125.868 Y183.535 E17.46968
G1 X126.364 Y183.539 E17.52179
G1 X126.853 Y183.622 E17.57391
G1 X127.322 Y183.783 E17.62601
G1 X127.759 Y184.017 E17.67809
G1 X128.153 Y184.318 E17.73019
G1 X128.494 Y184.678 E17.78229
G1 X128.784 Y185.11 E17.83695
G1 X130.156 Y187.576 E18.13346
G1 X130.362 Y188.027 E18.18555
G1 X130.492 Y188.506 E18.2377
G1 X130.544 Y188.999 E18.28979
G1 X130.516 Y189.494 E18.34188
G1 X130.409 Y189.978 E18.39396
G1 X130.225 Y190.439 E18.44612
G1 X130.09 Y190.664 E18.47369
G1 X130.09 Y192.137 E18.62845
G1 X143.068 Y189.013 E20.031
G1 X143.095 Y188.955 E20.03772
G1 X143.233 Y188.701 E20.06809
G1 X143.504 Y188.285 E20.12026
G1 X143.838 Y187.919 E20.17232
G1 X144.37 Y187.521 E20.24212
G1 X144.576 Y187.399 E20.26728
G1 X145.021 Y187.181 E20.31934
G1 X145.496 Y187.038 E20.37147
G1 X146.145 Y186.969 E20.44004
G1 X147.812 Y186.969 E20.61519
G1 X148.306 Y187.009 E20.66727
G1 X148.788 Y187.128 E20.71943
G1 X149.244 Y187.322 E20.7715
G1 X149.663 Y187.587 E20.82359
G1 X149.997 Y187.884 E20.87055
G1 X150.375 Y187.559 E20.92293
G1 X150.799 Y187.3 E20.97513
G1 X151.258 Y187.113 E21.0272
G1 X151.741 Y187.002 E21.07928
G1 X152.188 Y186.969 E21.12637
G1 X153.855 Y186.969 E21.30152
G1 X154.349 Y187.009 E21.3536
G1 X154.831 Y187.128 E21.40576
G1 X155.424 Y187.399 E21.47426
G1 X155.63 Y187.521 E21.49942
G1 X156.036 Y187.807 E21.5516
G1 X156.389 Y188.155 E21.60368
G1 X156.767 Y188.701 E21.67346
G1 X156.905 Y188.955 E21.70383
G1 X156.932 Y189.013 E21.71055
G1 X169.91 Y192.137 E23.11309
G1 X169.91 Y190.666 E23.26765
G1 X169.766 Y190.422 E23.29742
G1 X169.585 Y189.96 E23.34955
G1 X169.481 Y189.475 E23.40167
G1 X169.456 Y188.979 E23.45385
G1 X169.511 Y188.486 E23.50597
G1 X169.645 Y188.009 E23.55803
G1 X169.844 Y187.576 E23.6081
G1 X171.216 Y185.11 E23.9046
G1 X171.491 Y184.697 E23.95674
G1 X171.829 Y184.334 E24.00885
G1 X172.22 Y184.03 E24.06089
G1 X172.656 Y183.792 E24.11308
G1 X173.124 Y183.628 E24.16518
G1 X173.612 Y183.541 E24.21727
G1 X174.108 Y183.534 E24.26939
G1 X174.622 Y183.611 E24.32399
G1 X175.271 Y183.766 E24.3941
G1 X175.743 Y183.92 E24.44627
G1 X176.184 Y184.147 E24.49838
G1 X176.582 Y184.443 E24.5505
G1 X176.928 Y184.798 E24.60258
G1 X177.213 Y185.204 E24.6547
G1 X177.429 Y185.651 E24.70686
G1 X177.57 Y186.126 E24.75892
G1 X177.634 Y186.644 E24.81376
G1 X178.074 Y198.092 E26.01749
G1 X178.053 Y198.587 E26.06954
G1 X177.953 Y199.073 E26.12168
G1 X177.776 Y199.536 E26.17376
G1 X177.527 Y199.965 E26.22588
G1 X177.212 Y200.349 E26.27806
G1 X176.952 Y200.589 E26.31524
G1 X176.614 Y200.867 E26.36122
G1 X176.207 Y201.15 E26.41331
G1 X175.76 Y201.364 E26.46538
G1 X175.284 Y201.504 E26.51751
G1 X174.792 Y201.565 E26.5696
G1 X174.296 Y201.547 E26.62175
G1 X173.938 Y201.483 E26.65996
G1 X155.663 Y197.088 E28.63485
G1 X155.594 Y197.163 E28.64556
G1 X154.773 Y197.937 E28.76411
G1 X154.472 Y198.187 E28.80522
G1 X154.428 Y198.219 E28.81094
G1 X154.081 Y198.437 E28.854
G1 X153.097 Y198.969 E28.97153
G1 X152.738 Y199.135 E29.01309
G1 X152.686 Y199.155 E29.01894
G1 X152.295 Y199.276 E29.06194
G1 X151.209 Y199.535 E29.17925
G1 X150.811 Y199.603 E29.22167
G1 X150.753 Y199.609 E29.2278
G1 X150.351 Y199.624 E29.27007
G1 X150 Y199.614 E29.30696
G1 X149.649 Y199.624 E29.34386
G1 X149.247 Y199.609 E29.38612
G1 X149.189 Y199.603 E29.39225
G1 X148.791 Y199.535 E29.43467
G1 X147.705 Y199.276 E29.55198
G1 X147.314 Y199.155 E29.59498
G1 X147.262 Y199.135 E29.60084
G1 X146.903 Y198.969 E29.6424
G1 X145.919 Y198.437 E29.75993
G1 X145.572 Y198.219 E29.80298
G1 X145.528 Y198.187 E29.8087
G1 X145.227 Y197.937 E29.84981
G1 X144.406 Y197.163 E29.96836
G1 X144.336 Y197.088 E29.97914
G1 X126.062 Y201.483 E31.95394
G1 X125.572 Y201.559 E32.00603
G1 X125.076 Y201.557 E32.05815
G1 X124.587 Y201.474 E32.11026
G1 X124.118 Y201.314 E32.16233
G1 X123.68 Y201.081 E32.21446
G1 X123.386 Y200.867 E32.25266
G1 X123.048 Y200.589 E32.29865
G1 X122.691 Y200.244 E32.35081
G1 X122.395 Y199.846 E32.40292
G1 X122.166 Y199.406 E32.45504
G1 X122.011 Y198.935 E32.50714
G1 X121.933 Y198.445 E32.55927
G1 X121.926 Y198.092 E32.59637
G1 X122.366 Y186.644 E33.80009
G1 X122.425 Y186.151 E33.85226
G1 X122.562 Y185.675 E33.90431
G1 X122.774 Y185.226 E33.95648
G1 X123.055 Y184.818 E34.00853
G1 X123.398 Y184.459 E34.0607
G1 X123.614 Y184.297 E34.08907
G0 F810 X123.795 Y184.161
G0 F6000 X124.241 Y184.92
G1 F900 X124.612 Y184.725 E34.1331
G1 X124.933 Y184.622 E34.16852
G1 X125.582 Y184.467 E34.23863
G1 X125.997 Y184.409 E34.28266
G1 X126.415 Y184.431 E34.32664
G1 X126.822 Y184.531 E34.37068
G1 X127.203 Y184.707 E34.41477
G1 X127.543 Y184.952 E34.4588
G1 X127.83 Y185.257 E34.50281
G1 X128.015 Y185.537 E34.53807
G1 X129.387 Y188.003 E34.83457
G1 X129.555 Y188.387 E34.87861
G1 X129.648 Y188.796 E34.92268
G1 X129.66 Y189.215 E34.96672
G1 X129.594 Y189.629 E35.01077
G1 X129.45 Y190.022 E35.05475
G1 X129.234 Y190.381 E35.09877
G1 X129.21 Y190.409 E35.10264
G1 X129.21 Y193.253 E35.40146
G1 X143.704 Y189.764 E36.96784
G1 X143.751 Y189.628 E36.98296
G1 X143.868 Y189.375 E37.01225
G1 X144.006 Y189.121 E37.04262
G1 X144.24 Y188.773 E37.08668
G1 X144.536 Y188.476 E37.13074
G1 X144.818 Y188.278 E37.16694
G1 X145.024 Y188.156 E37.1921
G1 X145.403 Y187.978 E37.23609
G1 X145.809 Y187.875 E37.2801
G1 X146.145 Y187.849 E37.31551
G1 X147.812 Y187.849 E37.49066
G1 X148.229 Y187.889 E37.53468
G1 X148.631 Y188.007 E37.5787
G1 X149.003 Y188.2 E37.62273
G1 X149.332 Y188.459 E37.66672
G1 X149.606 Y188.776 E37.71075
G1 X149.785 Y189.076 E37.74745
G1 X150 Y189.512 E37.79853
G1 X150.215 Y189.076 E37.84961
G1 X150.435 Y188.72 E37.89358
G1 X150.719 Y188.412 E37.9376
G1 X151.056 Y188.163 E37.98162
G1 X151.434 Y187.982 E38.02566
G1 X151.84 Y187.877 E38.06972
G1 X152.188 Y187.849 E38.1064
G1 X153.855 Y187.849 E38.28155
G1 X154.272 Y187.889 E38.32557
G1 X154.674 Y188.007 E38.36959
G1 X154.976 Y188.156 E38.40497
G1 X155.182 Y188.278 E38.43013
G1 X155.521 Y188.525 E38.4742
G1 X155.806 Y188.832 E38.51821
G1 X155.994 Y189.121 E38.55444
G1 X156.132 Y189.375 E38.58481
G1 X156.249 Y189.628 E38.6141
G1 X156.296 Y189.764 E38.62921
G1 X170.79 Y193.253 E40.19559
G1 X170.79 Y190.398 E40.49557
G1 X170.701 Y190.288 E40.51043
G1 X170.504 Y189.918 E40.55448
G1 X170.38 Y189.517 E40.59858
G1 X170.335 Y189.101 E40.64254
G1 X170.37 Y188.683 E40.68661
G1 X170.483 Y188.28 E40.73059
G1 X170.613 Y188.003 E40.76274
G1 X171.985 Y185.537 E41.05924
G1 X172.222 Y185.192 E41.10322
G1 X172.521 Y184.898 E41.14728
G1 X172.87 Y184.667 E41.19126
G1 X173.257 Y184.505 E41.23534
G1 X173.667 Y184.42 E41.27933
G1 X174.086 Y184.414 E41.32336
G1 X174.418 Y184.467 E41.35868
G1 X175.067 Y184.622 E41.42879
G1 X175.464 Y184.758 E41.47288
G1 X175.827 Y184.966 E41.51684
G1 X176.144 Y185.24 E41.56087
G1 X176.404 Y185.569 E41.60493
G1 X176.597 Y185.941 E41.64896
G1 X176.716 Y186.343 E41.69301
G1 X176.754 Y186.678 E41.72843
G1 X177.194 Y198.126 E42.93216
G1 X177.171 Y198.544 E42.97614
G1 X177.068 Y198.95 E43.02015
G1 X176.89 Y199.33 E43.06424
G1 X176.643 Y199.668 E43.10823
G1 X176.393 Y199.909 E43.14471
G1 X176.055 Y200.187 E43.1907
G1 X175.708 Y200.421 E43.23467
G1 X175.322 Y200.585 E43.27874
G1 X174.913 Y200.673 E43.32269
G1 X174.494 Y200.682 E43.36673
G1 X174.144 Y200.627 E43.40395
G1 X155.339 Y196.104 E45.43613
G1 X155.199 Y196.296 E45.4611
G1 X154.99 Y196.523 E45.49352
G1 X154.169 Y197.297 E45.61207
G1 X153.954 Y197.475 E45.6414
G1 X153.91 Y197.507 E45.64712
G1 X153.662 Y197.663 E45.6779
G1 X152.678 Y198.195 E45.79543
G1 X152.422 Y198.313 E45.82505
G1 X152.37 Y198.333 E45.8309
G1 X152.09 Y198.42 E45.86171
G1 X151.004 Y198.679 E45.97902
G1 X150.72 Y198.727 E46.00928
G1 X150.662 Y198.733 E46.01541
G1 X150.375 Y198.744 E46.04558
G1 X150 Y198.734 E46.085
G1 X149.625 Y198.744 E46.12441
G1 X149.338 Y198.733 E46.15459
G1 X149.28 Y198.727 E46.16072
G1 X148.996 Y198.679 E46.19098
G1 X147.91 Y198.42 E46.30829
G1 X147.63 Y198.333 E46.33909
G1 X147.578 Y198.313 E46.34495
G1 X147.322 Y198.195 E46.37456
G1 X146.338 Y197.663 E46.4921
G1 X146.09 Y197.507 E46.52288
G1 X146.046 Y197.475 E46.5286
G1 X145.831 Y197.297 E46.55792
G1 X145.01 Y196.523 E46.67648
G1 X144.82 Y196.319 E46.70577
G1 X144.661 Y196.104 E46.73386
G1 X125.856 Y200.627 E48.76604
G1 X125.442 Y200.686 E48.80998
G1 X125.023 Y200.665 E48.85406
G1 X124.616 Y200.565 E48.8981
G1 X124.235 Y200.389 E48.94219
G1 X123.945 Y200.187 E48.97933
G1 X123.607 Y199.909 E49.02531
G1 X123.31 Y199.613 E49.06937
G1 X123.074 Y199.267 E49.11337
G1 X122.909 Y198.882 E49.15738
G1 X122.82 Y198.472 E49.20146
G1 X122.806 Y198.126 E49.23785
G1 X123.246 Y186.678 E50.44157
G1 X123.302 Y186.262 E50.48567
G1 X123.435 Y185.865 E50.52967
G1 X123.642 Y185.5 E50.57375
G1 X123.914 Y185.182 E50.61772
G1 X124.064 Y185.061 E50.63797
G0 F810 X124.241 Y184.92
G0 F6000 X124.757 Y185.635
G1 F900 X125.137 Y185.478 E50.68117
G1 X125.786 Y185.323 E50.75128
G1 X126.109 Y185.287 E50.78543
G1 X126.43 Y185.331 E50.81947
G1 X126.731 Y185.452 E50.85355
G1 X126.994 Y185.642 E50.88764
G1 X127.246 Y185.965 E50.93069
G1 X128.618 Y188.431 E51.22719
G1 X128.74 Y188.732 E51.26132
G1 X128.785 Y189.053 E51.29537
G1 X128.75 Y189.376 E51.32951
G1 X128.637 Y189.68 E51.36359
G1 X128.407 Y189.997 E51.40474
G1 X128.33 Y190.076 E51.41633
G1 X128.33 Y194.371 E51.8676
G1 X144.419 Y190.498 E53.60636
G1 X144.495 Y190.175 E53.64122
G1 X144.641 Y189.795 E53.68399
G1 X144.779 Y189.541 E53.71436
G1 X144.968 Y189.277 E53.74848
G1 X145.266 Y189.035 E53.78881
G1 X145.472 Y188.913 E53.81397
G1 X145.77 Y188.783 E53.84813
G1 X146.145 Y188.729 E53.88794
G1 X147.812 Y188.729 E54.06309
G1 X148.134 Y188.769 E54.09718
G1 X148.436 Y188.886 E54.13121
G1 X148.701 Y189.073 E54.16529
G1 X148.912 Y189.32 E54.19942
G1 X148.996 Y189.465 E54.21703
G1 X149.238 Y189.956 E54.27454
G1 X149.345 Y190.263 E54.3087
G1 X149.373 Y190.586 E54.34276
G1 X149.322 Y190.906 E54.37681
G1 X149.195 Y191.204 E54.41085
G1 X148.993 Y191.485 E54.44721
G1 X148.881 Y191.755 E54.47792
G1 X148.841 Y192.063 E54.51055
G1 X148.88 Y192.357 E54.54172
G1 X148.996 Y192.636 E54.57346
G1 X149.182 Y192.88 E54.6057
G1 X149.419 Y193.061 E54.63703
G1 X149.702 Y193.179 E54.66925
G1 X150 Y193.219 E54.70084
G1 X150.298 Y193.179 E54.73243
