;FLAVOR:Marlin
;TIME:276
;Filament used: 0.415891m
;Layer height: 0.32
;MINX:124.754
;MINY:116.973
;MINZ:0.32
;MAXX:176.981
;MAXY:198.008
;MAXZ:7.5
;Generated with Cura_SteamEngine 4.9.1
M140 S90
M105
M190 S90
M104 S245
M105
M109 S245
M82 ;absolute extrusion mode
G28 ; home all axes
 M117 Purge extruder
 G92 E0 ; reset extruder
 G1 Z1.0 F3000 ; move z up little to prevent scratching of surface
 G1 X2 Y20 Z0.3 F5000.0 ; move to start-line position
 G1 X2 Y200.0 Z0.3 F1500.0 E15 ; draw 1st line
 G1 X2 Y200.0 Z0.4 F5000.0 ; move to side a little
 G1 X2 Y20 Z0.4 F1500.0 E30 ; draw 2nd line
 G92 E0 ; reset extruder
 G1 Z1.0 F3000 ; move z up little to prevent scratching of surface
G92 E0
G92 E0
G1 F1500 E-2
;LAYER_COUNT:7
;LAYER:0
M107
M205 X8 Y8
G1 F300 Z0.52
;MESH:Peg_Board_Clip.stl(8)
G0 F6000 X147.161 Y191.337 Z0.52
;TYPE:WALL-OUTER
G1 F300 Z0.32
G1 F1500 E0
G1 F900 X147.066 Y192.06 E0.07662
G1 X147.166 Y192.819 E0.15706
G1 X147.459 Y193.525 E0.23737
G1 X147.924 Y194.133 E0.31779
G1 X148.534 Y194.6 E0.39851
G1 X149.24 Y194.893 E0.47882
G1 X150 Y194.993 E0.55937
G1 X150.76 Y194.893 E0.63991
G1 X151.466 Y194.6 E0.72022
G1 X152.076 Y194.133 E0.80094
G1 X152.541 Y193.525 E0.88136
G1 X152.834 Y192.819 E0.96168
G1 X152.934 Y192.058 E1.04232
G1 X152.839 Y191.337 E1.11873
G1 X152.834 Y191.298 E1.12286
G1 X152.541 Y190.593 E1.20308
G1 X152.461 Y190.489 E1.21687
G1 X152.541 Y190.489
G1 X152.834 Y190.489 E1.22449
G1 X152.874 Y190.489 E1.22857
G1 X153.734 Y190.489 E1.31893
G1 X153.799 Y190.608 E1.33318
G1 X154.118 Y191.955 E1.47862
G1 X172.888 Y196.475 E3.50715
G1 X173.43 Y196.605 E3.56572
G1 X173.43 Y196.048 E3.60125
G1 X173.43 Y196.047 E3.60136
G1 X173.43 Y189 E4.34179
G1 X173.43 Y188.815 E4.36122
G1 X173.08 Y189 E4.38135
G1 X173.241 Y188.711 E4.38393
G1 X174.129 Y187.112 E4.57611
G1 X174.193 Y188.785 E4.75202
G1 X174.526 Y197.429 E5.66091
G1 X174.527 Y197.43 E5.66106
G1 X174.548 Y198.008 E5.72183
G1 X173.985 Y197.873 E5.75843
G1 X153.912 Y193.046 E7.92761
G1 X153.711 Y193.721 E8.00161
G1 X153.157 Y194.623 E8.11283
G1 X152.38 Y195.356 E8.22507
G1 X151.451 Y195.859 E8.33607
G1 X150.419 Y196.104 E8.44751
G1 X150 Y196.093 E8.49155
G1 X149.581 Y196.104 E8.53559
G1 X148.549 Y195.859 E8.64704
G1 X147.62 Y195.356 E8.75803
G1 X146.843 Y194.623 E8.87027
G1 X146.289 Y193.721 E8.98149
G1 X146.088 Y193.046 E9.05549
G1 X126.015 Y197.873 E11.22467
G1 X125.452 Y198.008 E11.2855
G1 X125.473 Y197.43 E11.32207
G1 X125.474 Y197.429 E11.32221
G1 X125.806 Y188.786 E12.231
G1 X125.871 Y187.112 E12.40702
G1 X126.758 Y188.71 E12.59905
G1 X126.92 Y189 E12.63395
G1 X126.57 Y188.815 E12.64329
G1 X126.57 Y189
G1 X126.57 Y196.047 E13.38371
G1 X126.57 Y196.048 E13.38382
G1 X126.57 Y196.605 E13.44234
G1 X127.112 Y196.475 E13.47791
G1 X145.882 Y191.955 E15.50644
G1 X146.201 Y190.608 E15.65188
G1 X146.266 Y190.489 E15.66613
G1 X147.126 Y190.489 E15.75649
G1 X147.166 Y190.489 E15.76069
G1 X147.459 Y190.489 E15.79148
G1 X147.539 Y190.489 E15.79988
G1 X147.459 Y190.593 E15.80188
G1 X147.166 Y191.298 E15.85892
G1 X147.161 Y191.337 E15.86293
G0 F6000 X146.773 Y190.953
;TYPE:SKIN
G1 F900 X146.594 Y191.397 E15.88425
G1 X146.496 Y192.542 E15.93543
G1 X146.985 Y193.654 E15.98953
G1 X148.41 Y195.079 E16.07928
G1 X150.117 Y195.542 E16.15805
G1 X151.588 Y195.146 E16.22589
G1 X152.638 Y194.329 E16.28514
G1 X153.309 Y193.133 E16.34622
G1 X153.71 Y192.29 E16.38779
G1 X156.348 Y193.061 E16.51019
G1 X173.557 Y197.203 E17.2985
G1 X173.972 Y196.995 E17.31917
G1 X173.922 Y193.039 E17.49537
G0 F810 X173.917 Y192.585
G1 F1500 E15.49537
G1 F300 Z0.52
G0 F6000 X153.662 Y191.619 Z0.52
G1 F300 Z0.32
G1 F1500 E17.49537
G1 F900 X153.152 Y191.11 E17.53322
G1 F1500 E15.53322
G1 F300 Z0.52
G0 F6000 X145.86 Y192.529 Z0.52
G1 F300 Z0.32
G1 F1500 E17.53322
G1 F900 X145.358 Y192.65 E17.55563
G1 X126.801 Y197.116 E18.38392
G1 X126.159 Y197.096 E18.41179
G1 X126.08 Y194.527 E18.52333
G1 X126.106 Y193.15 E18.58309
G0 F810 X126.114 Y192.696
G1 F1500 E16.58309
G1 F300 Z0.52
G0 F6000 X125.843 Y197.402 Z0.52
G1 F300 Z0.32
G1 F1500 E18.58309
G1 F900 X125.951 Y197.511 E18.59115
G1 F1500 E16.59115
G1 F300 Z0.52
;MESH:NONMESH
G0 F6000 X147.161 Y191.337 Z0.52
;TIME_ELAPSED:21.445674
;LAYER:1
M106 S127.5
;MESH:Peg_Board_Clip.stl(8)
G0 F5400 X147.161 Y191.337 Z0.84
;TYPE:WALL-OUTER
G1 F300 Z0.64
G1 F1500 E18.59115
G1 F1200 X147.066 Y192.06 E18.67354
G1 X147.166 Y192.819 E18.76003
G1 X147.459 Y193.525 E18.84639
G1 X147.924 Y194.133 E18.93287
G1 X148.534 Y194.6 E19.01966
G1 X149.24 Y194.893 E19.10602
G1 X150 Y194.993 E19.19262
G1 X150.76 Y194.893 E19.27923
G1 X151.466 Y194.6 E19.36559
G1 X152.076 Y194.133 E19.45238
G1 X152.541 Y193.525 E19.53886
G1 X152.834 Y192.819 E19.62522
G1 X152.934 Y192.058 E19.71193
G1 X152.839 Y191.337 E19.79409
G1 X152.834 Y191.298 E19.79853
G1 X152.541 Y190.593 E19.88479
G1 X152.461 Y190.489 E19.89961
G1 X152.541 Y190.489
G1 X152.834 Y190.489 E19.90781
G1 X152.874 Y190.489 E19.9122
G1 X153.734 Y190.489 E20.00936
G1 X153.799 Y190.608 E20.02468
G1 X154.118 Y191.955 E20.18107
G1 X172.888 Y196.475 E22.36229
G1 X173.43 Y196.605 E22.42526
G1 X173.43 Y196.048 E22.46347
G1 X173.43 Y196.047 E22.46358
G1 X173.43 Y189 E23.25974
G1 X173.43 Y188.815 E23.28064
G1 X173.08 Y189 E23.30228
G1 X173.241 Y188.711 E23.30506
G1 X174.129 Y187.112 E23.5117
G1 X174.193 Y188.785 E23.70085
G1 X174.526 Y197.429 E24.67815
G1 X174.527 Y197.43 E24.67831
G1 X174.548 Y198.008 E24.74366
G1 X173.985 Y197.873 E24.78301
G1 X153.912 Y193.046 E27.11547
G1 X153.711 Y193.721 E27.19504
G1 X153.157 Y194.623 E27.31463
G1 X152.38 Y195.356 E27.43531
G1 X151.451 Y195.859 E27.55467
G1 X150.419 Y196.104 E27.6745
G1 X150 Y196.093 E27.72185
G1 X149.581 Y196.104 E27.76921
G1 X148.549 Y195.859 E27.88904
G1 X147.62 Y195.356 E28.0084
G1 X146.843 Y194.623 E28.12908
G1 X146.289 Y193.721 E28.24867
G1 X146.088 Y193.046 E28.32824
G1 X126.015 Y197.873 E30.6607
G1 X125.452 Y198.008 E30.7261
G1 X125.473 Y197.43 E30.76542
G1 X125.474 Y197.429 E30.76558
G1 X125.806 Y188.786 E31.74277
G1 X125.871 Y187.112 E31.93204
G1 X126.758 Y188.71 E32.13852
G1 X126.92 Y189 E32.17605
G1 X126.57 Y188.815 E32.18609
G1 X126.57 Y189
G1 X126.57 Y196.047 E32.98224
G1 X126.57 Y196.048 E32.98236
G1 X126.57 Y196.605 E33.04529
G1 X127.112 Y196.475 E33.08353
G1 X145.882 Y191.955 E35.26474
G1 X146.201 Y190.608 E35.42113
G1 X146.266 Y190.489 E35.43645
G1 X147.126 Y190.489 E35.53361
G1 X147.166 Y190.489 E35.53813
G1 X147.459 Y190.489 E35.57124
G1 X147.539 Y190.489 E35.58027
G1 X147.459 Y190.593 E35.58242
G1 X147.166 Y191.298 E35.64376
G1 X147.161 Y191.337 E35.64806
G0 F5400 X146.629 Y191.253
;TYPE:SKIN
G1 F1200 X146.245 Y192.26 E35.70076
G1 X144.373 Y192.887 E35.79729
G1 X126.345 Y197.226 E36.70396
G1 X126.029 Y196.919 E36.7255
G1 X126.095 Y193.566 E36.88948
G0 F1080 X126.103 Y193.112
G1 F1500 E34.88948
G1 F300 Z0.84
G0 F5400 X146.561 Y192.566 Z0.84
G1 F300 Z0.64
G1 F1500 E36.88948
G1 F1200 X146.671 Y193.079 E36.9143
G1 X147.633 Y194.605 E36.99964
G1 X148.782 Y195.323 E37.06373
G1 X150.472 Y195.499 E37.1441
G1 X152.547 Y194.67 E37.2498
G1 X153.501 Y192.47 E37.36323
G1 X156.587 Y193.118 E37.5124
G1 X173.64 Y197.222 E38.34211
G1 X173.963 Y196.899 E38.36371
G1 X173.89 Y193.078 E38.5445
G0 F1080 X173.882 Y192.624
G1 F1500 E36.5445
G1 F300 Z0.84
G0 F5400 X174.153 Y197.332 Z0.84
G1 F300 Z0.64
G1 F1500 E38.5445
G1 F1200 X173.987 Y197.497 E38.55772
G1 F1500 E36.55772
G1 F300 Z0.84
G0 F5400 X153.488 Y191.862 Z0.84
G1 F300 Z0.64
G1 F1500 E38.55772
G1 F1200 X153.392 Y191.335 E38.61337
G0 F5400 X153.25 Y190.855
G1 F1200 X153.107 Y190.999 E38.62484
G1 F1500 E36.62484
G1 F300 Z0.84
;MESH:NONMESH
G0 F5400 X147.161 Y191.337 Z0.84
;TIME_ELAPSED:34.967888
;LAYER:2
M106 S255
;MESH:Peg_Board_Clip.stl(8)
G0 F4800 X147.161 Y191.337 Z1.16
;TYPE:WALL-OUTER
G1 F300 Z0.96
G1 F1500 E38.62484
G1 F1398.5 X147.066 Y192.06 E38.70722
G1 X147.166 Y192.819 E38.79371
G1 X147.459 Y193.525 E38.88007
G1 X147.924 Y194.133 E38.96655
G1 X148.534 Y194.6 E39.05334
G1 X149.24 Y194.893 E39.1397
G1 X150 Y194.993 E39.2263
G1 X150.76 Y194.893 E39.31291
G1 X151.466 Y194.6 E39.39927
G1 X152.076 Y194.133 E39.48606
G1 X152.541 Y193.525 E39.57254
G1 X152.834 Y192.819 E39.6589
G1 X152.934 Y192.058 E39.74561
G1 X152.839 Y191.337 E39.82777
G1 X152.834 Y191.298 E39.83222
G1 X152.541 Y190.593 E39.91847
G1 X152.461 Y190.489 E39.93329
G1 X152.541 Y190.489
G1 X152.834 Y190.489 E39.94149
G1 X152.874 Y190.489 E39.94588
G1 X153.734 Y190.489 E40.04304
G1 X153.799 Y190.608 E40.05836
G1 X154.118 Y191.955 E40.21475
G1 X172.888 Y196.475 E42.39597
G1 X173.43 Y196.605 E42.45894
G1 X173.43 Y196.048 E42.49715
G1 X173.43 Y196.047 E42.49727
G1 X173.43 Y189 E43.29342
G1 X173.43 Y188.815 E43.31432
G1 X173.08 Y189 E43.33596
G1 X173.241 Y188.711 E43.33874
G1 X174.129 Y187.112 E43.54538
G1 X174.193 Y188.785 E43.73453
G1 X174.526 Y197.429 E44.71184
G1 X174.527 Y197.43 E44.712
G1 X174.548 Y198.008 E44.77734
G1 X173.985 Y197.873 E44.81669
G1 X153.912 Y193.046 E47.14915
G1 X153.711 Y193.721 E47.22872
G1 X153.157 Y194.623 E47.34831
G1 X152.38 Y195.356 E47.46899
G1 X151.451 Y195.859 E47.58835
G1 X150.419 Y196.104 E47.70818
G1 X150 Y196.093 E47.75553
G1 X149.581 Y196.104 E47.80289
G1 X148.549 Y195.859 E47.92272
G1 X147.62 Y195.356 E48.04208
G1 X146.843 Y194.623 E48.16276
G1 X146.289 Y193.721 E48.28235
G1 X146.088 Y193.046 E48.36192
G1 X126.015 Y197.873 E50.69438
G1 X125.452 Y198.008 E50.75979
G1 X125.473 Y197.43 E50.7991
G1 X125.474 Y197.429 E50.79926
G1 X125.806 Y188.786 E51.77645
G1 X125.871 Y187.112 E51.96572
G1 X126.758 Y188.71 E52.1722
G1 X126.92 Y189 E52.20973
G1 X126.57 Y188.815 E52.21977
G1 X126.57 Y189
G1 X126.57 Y196.047 E53.01592
G1 X126.57 Y196.048 E53.01604
G1 X126.57 Y196.605 E53.07897
G1 X127.112 Y196.475 E53.11721
G1 X145.882 Y191.955 E55.29842
G1 X146.201 Y190.608 E55.45481
G1 X146.266 Y190.489 E55.47013
G1 X147.126 Y190.489 E55.5673
G1 X147.166 Y190.489 E55.57181
G1 X147.459 Y190.489 E55.60492
G1 X147.539 Y190.489 E55.61396
G1 X147.459 Y190.593 E55.6161
G1 X147.166 Y191.298 E55.67744
G1 X147.161 Y191.337 E55.68174
G0 F4800 X146.773 Y190.953
;TYPE:SKIN
G1 F1398.5 X146.594 Y191.397 E55.70467
G1 X146.496 Y192.542 E55.7597
G1 X146.985 Y193.654 E55.81788
G1 X148.41 Y195.079 E55.91438
G1 X150.117 Y195.542 E55.99908
G1 X151.588 Y195.146 E56.07203
G1 X152.638 Y194.329 E56.13574
G1 X153.309 Y193.133 E56.20141
G1 X153.71 Y192.29 E56.24612
G1 X156.348 Y193.061 E56.37773
G1 X173.557 Y197.203 E57.22537
G1 X173.972 Y196.995 E57.2476
G1 X173.922 Y193.039 E57.43706
G0 F1258.6 X173.917 Y192.585
G1 F1500 E55.43706
G1 F300 Z1.16
G0 F4800 X153.662 Y191.619 Z1.16
G1 F300 Z0.96
G1 F1500 E57.43706
G1 F1398.5 X153.152 Y191.11 E57.47776
G1 F1500 E55.47776
G1 F300 Z1.16
G0 F4800 X145.86 Y192.529 Z1.16
G1 F300 Z0.96
G1 F1500 E57.47776
G1 F1398.5 X145.358 Y192.65 E57.50186
G1 X126.801 Y197.116 E58.39249
G1 X126.159 Y197.096 E58.42246
G1 X126.08 Y194.527 E58.54239
G1 X126.106 Y193.15 E58.60666
G0 F1258.6 X126.114 Y192.696
G1 F1500 E56.60666
G1 F300 Z1.16
G0 F4800 X125.843 Y197.402 Z1.16
G1 F300 Z0.96
G1 F1500 E58.60666
G1 F1398.5 X125.951 Y197.511 E58.61532
G1 F1500 E56.61532
G1 F300 Z1.16
;MESH:NONMESH
G0 F4800 X147.161 Y191.337 Z1.16
;TIME_ELAPSED:47.105360
;LAYER:3
;MESH:Peg_Board_Clip.stl(8)
G0 X147.161 Y191.337 Z1.48
;TYPE:WALL-OUTER
G1 F300 Z1.28
G1 F1500 E58.61532
G1 F1456.2 X147.066 Y192.06 E58.69771
G1 X147.166 Y192.819 E58.7842
G1 X147.459 Y193.525 E58.87056
G1 X147.924 Y194.133 E58.95704
G1 X148.534 Y194.6 E59.04383
G1 X149.24 Y194.893 E59.13019
G1 X150 Y194.993 E59.21679
G1 X150.76 Y194.893 E59.3034
G1 X151.466 Y194.6 E59.38976
G1 X152.076 Y194.133 E59.47655
G1 X152.541 Y193.525 E59.56303
G1 X152.834 Y192.819 E59.64939
G1 X152.934 Y192.058 E59.7361
G1 X152.839 Y191.337 E59.81826
G1 X152.834 Y191.298 E59.8227
G1 X152.541 Y190.593 E59.90896
G1 X152.461 Y190.489 E59.92378
G1 X152.541 Y190.489
G1 X152.834 Y190.489 E59.93198
G1 X152.874 Y190.489 E59.93637
G1 X153.734 Y190.489 E60.03353
G1 X153.799 Y190.608 E60.04885
G1 X154.118 Y191.955 E60.20524
G1 X172.888 Y196.475 E62.38646
G1 X173.43 Y196.605 E62.44943
G1 X173.43 Y196.048 E62.48764
G1 X173.43 Y196.047 E62.48775
G1 X173.43 Y189 E63.28391
G1 X173.43 Y188.815 E63.30481
G1 X173.08 Y189 E63.32645
G1 X173.241 Y188.711 E63.32923
G1 X174.129 Y187.112 E63.53587
G1 X174.193 Y188.785 E63.72502
G1 X174.526 Y197.429 E64.70232
G1 X174.527 Y197.43 E64.70248
G1 X174.548 Y198.008 E64.76783
G1 X173.985 Y197.873 E64.80718
G1 X153.912 Y193.046 E67.13964
G1 X153.711 Y193.721 E67.21921
G1 X153.157 Y194.623 E67.3388
G1 X152.38 Y195.356 E67.45948
G1 X151.451 Y195.859 E67.57884
G1 X150.419 Y196.104 E67.69867
G1 X150 Y196.093 E67.74602
G1 X149.581 Y196.104 E67.79338
G1 X148.549 Y195.859 E67.91321
G1 X147.62 Y195.356 E68.03257
G1 X146.843 Y194.623 E68.15325
G1 X146.289 Y193.721 E68.27284
G1 X146.088 Y193.046 E68.35241
G1 X126.015 Y197.873 E70.68487
G1 X125.452 Y198.008 E70.75027
G1 X125.473 Y197.43 E70.78959
G1 X125.474 Y197.429 E70.78975
G1 X125.806 Y188.786 E71.76694
G1 X125.871 Y187.112 E71.95621
G1 X126.758 Y188.71 E72.16269
G1 X126.92 Y189 E72.20022
G1 X126.57 Y188.815 E72.21026
G1 X126.57 Y189
G1 X126.57 Y196.047 E73.00641
G1 X126.57 Y196.048 E73.00653
G1 X126.57 Y196.605 E73.06946
G1 X127.112 Y196.475 E73.1077
G1 X145.882 Y191.955 E75.28891
G1 X146.201 Y190.608 E75.4453
G1 X146.266 Y190.489 E75.46062
G1 X147.126 Y190.489 E75.55778
G1 X147.166 Y190.489 E75.5623
G1 X147.459 Y190.489 E75.59541
G1 X147.539 Y190.489 E75.60444
G1 X147.459 Y190.593 E75.60659
G1 X147.166 Y191.298 E75.66793
G1 X147.161 Y191.337 E75.67223
G0 F4800 X146.629 Y191.253
;TYPE:SKIN
G1 F1456.2 X146.245 Y192.26 E75.72493
G1 X144.373 Y192.887 E75.82146
G1 X126.345 Y197.226 E76.72813
G1 X126.029 Y196.919 E76.74967
G1 X126.095 Y193.566 E76.91365
G0 F1310.6 X126.103 Y193.112
G1 F1500 E74.91365
G1 F300 Z1.48
G0 F4800 X146.561 Y192.566 Z1.48
G1 F300 Z1.28
G1 F1500 E76.91365
G1 F1456.2 X146.671 Y193.079 E76.93847
G1 X147.633 Y194.605 E77.02381
G1 X148.782 Y195.323 E77.0879
G1 X150.472 Y195.499 E77.16827
G1 X152.547 Y194.67 E77.27397
G1 X153.501 Y192.47 E77.3874
G1 X156.587 Y193.118 E77.53657
G1 X173.64 Y197.222 E78.36628
G1 X173.963 Y196.899 E78.38788
G1 X173.89 Y193.078 E78.56867
G0 F1310.6 X173.882 Y192.624
G1 F1500 E76.56867
G1 F300 Z1.48
G0 F4800 X174.153 Y197.332 Z1.48
G1 F300 Z1.28
G1 F1500 E78.56867
G1 F1456.2 X173.987 Y197.497 E78.58189
G1 F1500 E76.58189
G1 F300 Z1.48
G0 F4800 X153.488 Y191.862 Z1.48
G1 F300 Z1.28
G1 F1500 E78.58189
G1 F1456.2 X153.392 Y191.335 E78.63754
G0 F4800 X153.25 Y190.855
G1 F1456.2 X153.107 Y190.999 E78.64901
G1 F1500 E76.64901
G1 F300 Z1.48
;MESH:NONMESH
G0 F4800 X147.161 Y191.337 Z1.48
;TIME_ELAPSED:58.958302
;LAYER:4
;MESH:Peg_Board_Clip.stl(8)
G0 X147.161 Y191.337 Z1.8
;TYPE:WALL-OUTER
G1 F300 Z1.6
G1 F1500 E78.64901
G1 F1398.5 X147.066 Y192.06 E78.73139
G1 X147.166 Y192.819 E78.81788
G1 X147.459 Y193.525 E78.90424
G1 X147.924 Y194.133 E78.99072
G1 X148.534 Y194.6 E79.07751
G1 X149.24 Y194.893 E79.16387
G1 X150 Y194.993 E79.25047
G1 X150.76 Y194.893 E79.33708
G1 X151.466 Y194.6 E79.42344
G1 X152.076 Y194.133 E79.51023
G1 X152.541 Y193.525 E79.59671
G1 X152.834 Y192.819 E79.68307
G1 X152.934 Y192.058 E79.76978
G1 X152.839 Y191.337 E79.85194
G1 X152.834 Y191.298 E79.85639
G1 X152.541 Y190.593 E79.94264
G1 X152.461 Y190.489 E79.95746
G1 X152.541 Y190.489
G1 X152.834 Y190.489 E79.96566
G1 X152.874 Y190.489 E79.97005
G1 X153.734 Y190.489 E80.06721
G1 X153.799 Y190.608 E80.08253
G1 X154.118 Y191.955 E80.23892
G1 X172.888 Y196.475 E82.42014
